; generated by PrusaSlicer 2.7.4+MacOS-arm64 on 2024-05-12 at 10:34:09 UTC


;
;

;
;

;
;

;
;

;
;
; 

; external perimeters extrusion width = 0.45mm
; perimeters extrusion width = 0.45mm
; infill extrusion width = 0.45mm
; solid infill extrusion width = 0.45mm
; top infill extrusion width = 0.42mm
; first layer extrusion width = 0.50mm

M73 P0 R69
M201 X4000 Y4000 Z200 E2500 ; sets maximum accelerations, mm/sec^2
M203 X300 Y300 Z12 E120 ; sets maximum feedrates, mm / sec
M204 P4000 R1250 T4000 ; sets acceleration (P, T) and retract acceleration (R), mm/sec^2
M205 X8.00 Y8.00 Z2.00 E5.00 ; sets the jerk limits, mm/sec
M205 S0 T0 ; sets the minimum extruding and travel feed rate, mm/sec

M486 S0
M486 Abottom.stl
M486 S-1

;TYPE:Custom
M17 ; enable steppers
M862.1 P0.4 ; nozzle diameter check
M862.3 P "MK3.5" ; printer model check
M862.5 P2 ; g-code level check
M862.6 P"Input shaper" ; FW feature check
M115 U5.2.1+13903

M555 X55.9 Y53.9735 W138.2 H98.0531

G90 ; use absolute coordinates
M83 ; extruder relative mode

M140 S60 ; set bed temp
M104 T0 S170 ; set extruder temp for bed leveling
M109 T0 R170 ; wait for temp
M190 S60 ; wait for bed temp

G28 ; home all

G29 P1 ; invalidate mbl & probe print area
G29 P1 X23 Y5 W80 H20 C ; probe near purge place
G29 P3.2 ; interpolate mbl probes
G29 P3.13 ; extrapolate mbl outside probe area
G29 A ; activate mbl

; prepare for purge
M104 S230
G0 X0 Y-4 Z15 F4800 ; move away and ready for the purge
M109 S230

; Extrude purge line

G92 E0 ; reset extruder position
G0 E7 X15 Z0.2 F500 ; purge
G0 X25 E4 F500 ; purge
G0 X35 E4 F650 ; purge
G0 X45 E4 F800 ; purge
G0 X48 Z0.05 F8000 ; wipe, move close to the bed
G0 X51 Z0.2 F8000 ; wipe, move quickly away from the bed

G92 E0
M221 S100 ; reset flow to 100%
G21 ; set units to millimeters
G90 ; use absolute coordinates
M83 ; use relative distances for extrusion





M572 S0.035 ; Filament gcode
M107
;LAYER_CHANGE
;Z:0.2
;HEIGHT:0.2
G1 E-.8 F2100
G1 Z.4 F720
M486 S0
G1 X193.157 Y93.536 F18000
G1 Z.2 F720
G1 E.8 F2100
M204 P500
;TYPE:Perimeter
;WIDTH:0.572818
G1 F1800
G1 X193.162 Y93.592 E.00248
;WIDTH:0.562511
G1 X193.177 Y93.864 E.01177
;WIDTH:0.531255
G1 X193.193 Y94.135 E.01102
;WIDTH:0.499999
G1 X193.193 Y137.532 E1.64936
;WIDTH:0.533816
G1 X193.176 Y137.817 E.01165
;WIDTH:0.567632
G1 X193.159 Y138.102 E.01246
G1 X193.135 Y138.015 E.00394
;WIDTH:0.552198
G1 X193.051 Y137.749 E.01181
;WIDTH:0.526099
G1 X192.967 Y137.484 E.01117
;WIDTH:0.499999
G1 X192.711 Y136.831 E.02666
G2 X191.108 Y134.926 I-4.673 J2.307 E.09555
G2 X190.003 Y134.331 I-3.741 J5.621 E.04777
G2 X187.603 Y134.035 I-1.813 J4.813 E.09277
G1 X186.913 Y134.163 E.02667
G2 X184.315 Y135.844 I1.359 J4.949 E.11947
G2 X183.686 Y136.844 I4.546 J3.555 E.04498
G1 X183.426 Y137.495 E.02664
G2 X183.209 Y138.657 I5.536 J1.633 E.04501
G1 X183.206 Y139.359 E.02668
G2 X183.433 Y140.519 I5.749 J-.52 E.045
G1 X183.689 Y141.172 E.02666
G2 X185.826 Y143.409 I4.607 J-2.262 E.11944
G2 X186.997 Y143.861 I2.761 J-5.409 E.04779
;WIDTH:0.532618
G1 X187.527 Y143.979 E.02211
G1 X186.984 Y143.995 E.02212
;WIDTH:0.499999
G1 X156.152 Y144.004 E1.17181
G1 X155.74 Y144.156 E.01669
G1 X155.503 Y144.337 E.01133
G1 X155.29 Y144.656 E.01458
G1 X155.198 Y145.027 E.01453
G1 X155.193 Y147.691 E.10125
G1 X155.128 Y148.153 E.01773
G1 X154.975 Y148.418 E.01163
G1 X154.741 Y148.615 E.01163
G3 X154.26 Y148.744 I-.953 J-2.579 E.01895
G1 X137.227 Y148.75 E.64736
G1 X137.153 Y148.754 E.00282
G1 X136.74 Y148.906 E.01673
G1 X136.523 Y149.065 E.01022
G1 X136.267 Y149.451 E.0176
G3 X136.128 Y150.528 I-14.774 J-1.359 E.04128
G1 X135.975 Y150.793 E.01163
G1 X135.741 Y150.99 E.01163
G3 X135.26 Y151.119 I-.953 J-2.579 E.01895
G1 X118.86 Y151.119 E.6233
G1 X118.398 Y151.055 E.01773
G1 X118.133 Y150.902 E.01163
G1 X117.937 Y150.667 E.01163
G3 X117.822 Y150.225 I1.966 J-.745 E.01739
G1 X117.782 Y149.657 E.02164
G1 X117.659 Y149.297 E.01446
G1 X117.394 Y148.988 E.01547
G1 X116.951 Y148.788 E.01847
G1 X116.711 Y148.744 E.00927
G1 X99.86 Y148.744 E.64044
G1 X99.398 Y148.68 E.01773
G1 X99.133 Y148.527 E.01163
G1 X98.937 Y148.292 E.01163
G3 X98.822 Y147.85 I1.966 J-.745 E.01739
G1 X98.782 Y147.282 E.02164
G1 X98.659 Y146.922 E.01446
G1 X98.373 Y146.597 E.01645
G1 X97.951 Y146.413 E.0175
G1 X97.711 Y146.369 E.00927
G1 X63.016 Y146.369 E1.31863
;WIDTH:0.529236
G1 X62.473 Y146.353 E.02197
G1 X63.087 Y146.215 E.02545
;WIDTH:0.499999
G2 X65.203 Y145.044 I-1.363 J-4.96 E.09278
G1 X65.685 Y144.535 E.02664
G2 X66.799 Y141.648 I-4.008 J-3.206 E.11947
G2 X66.567 Y139.859 I-5.27 J-.226 E.0689
G1 X66.311 Y139.206 E.02666
G2 X64.708 Y137.301 I-4.673 J2.307 E.09555
G2 X63.603 Y136.706 I-3.74 J5.621 E.04777
G2 X61.203 Y136.41 I-1.813 J4.813 E.09277
G1 X60.513 Y136.538 E.02667
G2 X57.915 Y138.219 I1.359 J4.95 E.11947
G2 X57.026 Y139.87 I4.235 J3.346 E.07163
;WIDTH:0.533814
G1 X56.933 Y140.173 E.01294
;WIDTH:0.567628
G1 X56.841 Y140.477 E.01386
G1 X56.833 Y140.386 E.00399
;WIDTH:0.552191
G1 X56.82 Y140.114 E.01153
;WIDTH:0.526095
G1 X56.807 Y139.843 E.0109
;WIDTH:0.499999
G1 X56.807 Y87.585 E1.98613
G3 X56.947 Y86.888 I2.128 J.063 E.02715
G1 X69.989 Y64.298 E.99138
;WIDTH:0.545419
G1 X70.162 Y64.043 E.01288
;WIDTH:0.590838
G1 X70.336 Y63.788 E.01406
G1 X70.322 Y63.859 E.0033
;WIDTH:0.574277
G1 X70.265 Y64.169 E.01393
;WIDTH:0.537138
G1 X70.207 Y64.478 E.01292
;WIDTH:0.499999
G2 X70.139 Y65.731 I6.678 J.991 E.04776
G2 X70.366 Y66.891 I5.749 J-.52 E.045
G1 X70.621 Y67.545 E.02668
G2 X72.759 Y69.782 I4.607 J-2.262 E.11946
G2 X75.803 Y70.335 I2.398 J-4.538 E.11944
G2 X77.016 Y70.013 I-1.239 J-7.098 E.04776
G2 X79.383 Y68.02 I-1.968 J-4.74 E.11946
G2 X80.126 Y65.017 I-4.378 J-2.678 E.11943
G2 X78.963 Y62.15 I-5.115 J.407 E.11945
;WIDTH:0.536654
G1 X78.83 Y61.984 E.00873
;WIDTH:0.573308
G1 X78.697 Y61.819 E.00935
;WIDTH:0.609962
G1 X78.563 Y61.653 E.01006
G1 X78.651 Y61.689 E.00448
;WIDTH:0.584031
G1 X78.897 Y61.806 E.01226
;WIDTH:0.542015
G1 X79.142 Y61.924 E.01129
;WIDTH:0.499999
G2 X83.112 Y64.18 I96.228 J-164.68 E.17355
G2 X108.99 Y72.356 I34.447 J-63.987 E1.03754
G2 X117.498 Y72.859 I8.636 J-73.876 E.3241
G1 X126.135 Y72.859 E.32826
G1 X126.609 Y72.924 E.01818
G1 X126.873 Y73.076 E.01158
G1 X127.115 Y73.365 E.01433
G1 X135.024 Y87.064 E.60119
G1 X135.287 Y87.357 E.01496
G1 X135.533 Y87.512 E.01105
G1 X135.904 Y87.603 E.01452
G1 X186.994 Y87.608 E1.94174
;WIDTH:0.526394
G1 X187.602 Y87.621 E.02445
;WIDTH:0.526318
G1 X186.913 Y87.763 E.02828
;WIDTH:0.499999
G2 X184.315 Y89.444 I1.359 J4.95 E.11947
G2 X183.686 Y90.444 I4.546 J3.555 E.04498
G1 X183.426 Y91.095 E.02664
G2 X183.209 Y92.257 I5.536 J1.633 E.04501
G1 X183.206 Y92.959 E.02668
G2 X183.433 Y94.119 I5.749 J-.52 E.045
G1 X183.689 Y94.772 E.02666
G2 X185.235 Y96.631 I4.64 J-2.287 E.09275
G2 X186.397 Y97.272 I3.636 J-5.218 E.05053
G2 X189.487 Y97.44 I1.81 J-4.802 E.11947
G2 X192.085 Y95.759 I-1.359 J-4.949 E.11947
G2 X192.974 Y94.108 I-4.235 J-3.346 E.07163
;WIDTH:0.536409
G1 X193.065 Y93.822 E.01232
;WIDTH:0.572818
G1 X193.138 Y93.593 E.01059
M204 P2500
;WIPE_START
G1 F14400
G1 X193.157 Y93.536 E-.00832
G1 X193.162 Y93.592 E-.00779
G1 X193.177 Y93.864 E-.03774
G1 X193.193 Y94.135 E-.03761
G1 X193.193 Y99.249 E-.70854
;WIPE_END
M204 T4000
G1 Z.4 F720
G1 X192.732 Y90.484 F18000
G1 Z.2 F720
G1 E.8 F2100
M204 P500
;WIDTH:0.499999
G1 F1800
G1 X192.711 Y90.431 E.00217
G2 X190.574 Y88.194 I-4.607 J2.262 E.11944
G2 X189.403 Y87.742 I-2.761 J5.409 E.04779
;WIDTH:0.532238
G1 X188.873 Y87.624 E.02209
G1 X189.416 Y87.608 E.0221
;WIDTH:0.499999
G1 X192.069 Y87.609 E.10083
G1 X192.602 Y87.673 E.0204
G1 X192.867 Y87.826 E.01163
G1 X193.063 Y88.061 E.01163
G3 X193.193 Y88.576 I-1.679 J.696 E.02026
G1 X193.193 Y91.132 E.09714
;WIDTH:0.533816
G1 X193.176 Y91.417 E.01165
;WIDTH:0.567632
G1 X193.159 Y91.702 E.01246
G1 X193.135 Y91.615 E.00394
;WIDTH:0.552198
G1 X193.051 Y91.349 E.01181
;WIDTH:0.526099
G1 X192.967 Y91.084 E.01117
;WIDTH:0.499999
G1 X192.754 Y90.539 E.02224
M204 P2500
G1 X192.754 Y90.539 F18000
G1 X192.305 Y90.654
M204 P500
;TYPE:External perimeter
G1 F1800
G3 X192.54 Y91.247 I-4.327 J2.057 E.02426
G3 X191.715 Y95.491 I-4.369 J1.353 E.17115
G3 X186.538 Y96.837 I-3.522 J-2.918 E.21714
G3 X185.096 Y95.928 I2.038 J-4.832 E.06507
G3 X183.733 Y93.465 I3.231 J-3.397 E.10866
G3 X183.728 Y91.763 I4.999 J-.864 E.06499
G3 X184.109 Y90.618 I5.19 J1.092 E.04596
G3 X185.995 Y88.621 I4.15 J2.032 E.106
G3 X187.683 Y88.085 I2.271 J4.22 E.0677
G3 X191.697 Y89.69 I.51 J4.545 E.17113
G3 X192.279 Y90.6 I-3.719 J3.021 E.04114
M204 P2500
;WIPE_START
G1 F14400
G1 X192.305 Y90.654 E-.0083
G3 X192.54 Y91.247 I-4.327 J2.058 E-.08844
G3 X191.715 Y95.491 I-4.369 J1.353 E-.62387
G3 X191.323 Y95.908 I-3.522 J-2.918 E-.07939
;WIPE_END
G1 Z.4 F720
G1 X187.602 Y87.621 F18000
G1 Z.2 F720
G1 E.8 F2100
M204 P500
;TYPE:Perimeter
;WIDTH:0.526394
G1 F1800
G1 X188.157 Y87.602 E.02232
;WIDTH:0.521188
G1 X188.785 Y87.619 E.02498
;WIDTH:0.532238
G1 X188.873 Y87.624 E.00359
M204 P2500
;WIPE_START
G1 F14400
G1 X188.785 Y87.619 E-.01221
G1 X188.157 Y87.602 E-.08704
G1 X187.602 Y87.621 E-.07694
;WIPE_END
G1 E-.62381 F2100
G1 Z.4 F720
G1 X193.159 Y91.702 F18000
G1 Z.2 F720
G1 E.8 F2100
M204 P500
;WIDTH:0.567632
G1 F1800
G1 X193.176 Y91.973 E.01185
;WIDTH:0.533483
G1 X193.193 Y92.244 E.01108
;WIDTH:0.499334
G1 X193.196 Y92.873 E.02387
;WIDTH:0.530781
G1 X193.178 Y93.187 E.01276
;WIDTH:0.567634
G1 X193.159 Y93.502 E.01377
;WIDTH:0.572818
G1 X193.157 Y93.536 E.0015
M204 P2500
;WIPE_START
G1 F14400
G1 X193.159 Y93.502 E-.00472
G1 X193.178 Y93.187 E-.04372
G1 X193.196 Y92.873 E-.04357
G1 X193.193 Y92.244 E-.08714
G1 X193.176 Y91.973 E-.03762
G1 X193.159 Y91.702 E-.03762
;WIPE_END
G1 E-.54561 F2100
G1 Z.4 F720
G1 X175.916 Y109.348 F18000
G1 Z.2 F720
G1 E.8 F2100
M204 P500
;WIDTH:0.499999
G1 F1800
G1 X175.759 Y109.405 E.00635
G1 X175.684 Y109.409 E.00285
G1 X172.887 Y109.409 E.1063
G1 X172.615 Y109.352 E.01056
G1 X172.363 Y109.164 E.01195
G1 X172.294 Y109.066 E.00456
G1 X170.895 Y106.644 E.1063
G1 X170.805 Y106.351 E.01165
G3 X170.858 Y106.032 I1.833 J.143 E.01231
G1 X172.294 Y103.537 E.10941
G1 X172.473 Y103.334 E.01029
G1 X172.769 Y103.205 E.01227
G1 X172.887 Y103.194 E.0045
G1 X175.687 Y103.194 E.10642
G1 X175.958 Y103.251 E.01053
G1 X176.19 Y103.417 E.01084
G3 X177.677 Y105.959 I-79.864 J48.421 E.11193
G1 X177.768 Y106.267 E.01221
G3 X177.677 Y106.644 I-.907 J-.019 E.01485
G1 X176.278 Y109.066 E.1063
G1 X176.06 Y109.297 E.01207
G1 X175.973 Y109.328 E.00351
M204 P2500
G1 X175.973 Y109.328 F18000
G1 X175.753 Y108.934
M204 P500
;TYPE:External perimeter
G1 F1800
G3 X175.684 Y108.952 I-.111 J-.285 E.00272
G1 X172.887 Y108.952 E.1063
G1 X172.728 Y108.887 E.00653
G1 X172.69 Y108.837 E.00239
G1 X171.291 Y106.416 E.10627
G1 X171.267 Y106.247 E.00649
G1 X171.279 Y106.212 E.00141
G1 X172.69 Y103.766 E.10732
G1 X172.823 Y103.661 E.00644
G1 X172.887 Y103.652 E.00246
G1 X175.685 Y103.652 E.10634
G1 X175.843 Y103.715 E.00646
G1 X177.281 Y106.187 E.10869
G1 X177.305 Y106.356 E.00649
G1 X177.281 Y106.416 E.00246
G1 X175.882 Y108.837 E.10627
G3 X175.806 Y108.906 I-.24 J-.188 E.00392
M204 P2500
;WIPE_START
G1 F14400
G1 X175.753 Y108.934 E-.0083
G3 X175.684 Y108.952 I-.111 J-.285 E-.0099
G1 X172.887 Y108.952 E-.3875
G1 X172.728 Y108.887 E-.0238
G1 X172.69 Y108.837 E-.0087
G1 X171.383 Y106.576 E-.3618
;WIPE_END
G1 Z.4 F720
G1 X172.657 Y122.254 F18000
G1 Z.2 F720
G1 E.8 F2100
M204 P500
;TYPE:Perimeter
G1 F1800
G1 X172.814 Y122.198 E.00634
G1 X175.684 Y122.194 E.10908
G1 X175.959 Y122.252 E.01068
G1 X176.19 Y122.417 E.01079
G1 X176.278 Y122.537 E.00566
G1 X177.677 Y124.959 E.1063
G1 X177.768 Y125.269 E.01228
G1 X177.717 Y125.563 E.01134
G1 X176.276 Y128.07 E.1099
G1 X176.081 Y128.282 E.01095
G1 X175.787 Y128.401 E.01205
G1 X175.684 Y128.409 E.00393
G1 X172.887 Y128.409 E.1063
G1 X172.576 Y128.334 E.01216
G1 X172.352 Y128.151 E.01099
G1 X170.895 Y125.644 E.1102
G1 X170.805 Y125.345 E.01187
G1 X170.857 Y125.036 E.01191
G1 X170.895 Y124.959 E.00326
G1 X172.294 Y122.537 E.1063
G1 X172.514 Y122.305 E.01215
G1 X172.6 Y122.274 E.00347
M204 P2500
G1 X172.6 Y122.274 F18000
G1 X172.82 Y122.669
M204 P500
;TYPE:External perimeter
G1 F1800
G3 X172.887 Y122.652 I.111 J.286 E.00263
G1 X175.684 Y122.652 E.1063
G1 X175.844 Y122.717 E.00656
G1 X175.882 Y122.766 E.00236
G1 X177.281 Y125.187 E.10627
G1 X177.304 Y125.36 E.00663
G1 X175.882 Y127.839 E.10862
G3 X175.684 Y127.952 I-.242 J-.193 E.00887
G1 X172.887 Y127.952 E.1063
G1 X172.709 Y127.866 E.00751
G1 X171.291 Y125.416 E.10759
G1 X171.269 Y125.238 E.00682
G1 X172.69 Y122.766 E.10837
G3 X172.766 Y122.696 I.241 J.189 E.00395
M204 P2500
;WIPE_START
G1 F14400
G1 X172.82 Y122.669 E-.00836
G3 X172.887 Y122.652 I.108 J.287 E-.0096
G1 X175.684 Y122.652 E-.3875
G1 X175.844 Y122.717 E-.02393
G1 X175.882 Y122.766 E-.00859
G1 X177.189 Y125.029 E-.36202
;WIPE_END
G1 Z.4 F720
G1 X193.157 Y139.936 F18000
G1 Z.2 F720
G1 E.8 F2100
M204 P500
;TYPE:Perimeter
;WIDTH:0.572818
G1 F1800
G1 X193.162 Y139.992 E.00248
;WIDTH:0.562511
G1 X193.177 Y140.264 E.01177
;WIDTH:0.531255
G1 X193.193 Y140.535 E.01102
;WIDTH:0.499999
G1 X193.193 Y142.965 E.09236
G1 X193.128 Y143.403 E.01683
G1 X192.975 Y143.668 E.01163
G1 X192.741 Y143.865 E.01163
G3 X192.26 Y143.994 I-.98 J-2.678 E.01895
G1 X189.416 Y143.995 E.10809
;WIDTH:0.530548
G1 X188.863 Y143.98 E.02243
G1 X188.873 Y143.979 E.00041
;WIDTH:0.529758
G1 X189.487 Y143.84 E.02548
;WIDTH:0.499999
G2 X191.177 Y143.026 I-1.459 J-5.197 E.07166
G2 X192.085 Y142.159 I-4.364 J-5.476 E.04778
G2 X192.974 Y140.508 I-4.235 J-3.346 E.07163
;WIDTH:0.536409
G1 X193.065 Y140.222 E.01232
;WIDTH:0.572818
G1 X193.138 Y139.993 E.01059
M204 P2500
;WIPE_START
G1 F14400
G1 X193.157 Y139.936 E-.00832
G1 X193.162 Y139.992 E-.00779
G1 X193.177 Y140.264 E-.03774
G1 X193.193 Y140.535 E-.03761
G1 X193.193 Y142.965 E-.33666
G1 X193.128 Y143.403 E-.06135
G1 X192.975 Y143.668 E-.04239
G1 X192.741 Y143.865 E-.04238
G3 X192.26 Y143.994 I-.976 J-2.679 E-.06908
G1 X191.129 Y143.994 E-.15668
;WIPE_END
G1 Z.4 F720
G1 X189.859 Y134.772 F18000
G1 Z.2 F720
G1 E.8 F2100
M204 P500
;TYPE:External perimeter
;WIDTH:0.499999
G1 F1800
G3 X190.436 Y135.043 I-1.746 J4.462 E.02425
G3 X191.304 Y135.675 I-2.622 J4.515 E.04088
G3 X192.667 Y138.135 I-3.229 J3.396 E.10856
G3 X192.734 Y139.34 I-5.228 J.895 E.04597
G3 X191.325 Y142.309 I-4.583 J-.356 E.12773
G3 X189.888 Y143.227 I-3.32 J-3.613 E.06514
G3 X184.703 Y141.913 I-1.681 J-4.254 E.21713
G3 X183.86 Y140.356 I3.72 J-3.022 E.06768
G3 X183.728 Y138.163 I4.521 J-1.373 E.08427
G3 X184.109 Y137.018 I5.19 J1.092 E.04596
G3 X185.995 Y135.021 I4.15 J2.032 E.106
G3 X187.683 Y134.485 I2.271 J4.22 E.0677
G3 X188.756 Y134.486 I.532 J5.192 E.04085
G3 X189.803 Y134.75 I-.643 J4.748 E.04113
M204 P2500
;WIPE_START
G1 F14400
G1 X189.859 Y134.772 E-.00834
G3 X190.436 Y135.043 I-1.744 J4.463 E-.08838
G3 X191.304 Y135.675 I-2.623 J4.514 E-.14902
G3 X192.667 Y138.135 I-3.229 J3.396 E-.39573
G3 X192.737 Y139.275 I-5.228 J.894 E-.15853
;WIPE_END
G1 Z.4 F720
G1 X188.863 Y143.98 F18000
G1 Z.2 F720
G1 E.8 F2100
M204 P500
;TYPE:Perimeter
;WIDTH:0.530548
G1 F1800
G1 X188.243 Y144.001 E.02515
;WIDTH:0.521548
G1 X187.615 Y143.984 E.025
;WIDTH:0.532618
G1 X187.527 Y143.979 E.00359
M204 P2500
;WIPE_START
G1 F14400
G1 X187.615 Y143.984 E-.01221
G1 X188.243 Y144.001 E-.08704
G1 X188.863 Y143.98 E-.08595
;WIPE_END
G1 E-.6148 F2100
G1 Z.4 F720
G1 X193.159 Y138.102 F18000
G1 Z.2 F720
G1 E.8 F2100
M204 P500
;WIDTH:0.567632
G1 F1800
G1 X193.176 Y138.373 E.01185
;WIDTH:0.533475
G1 X193.193 Y138.644 E.01108
;WIDTH:0.502038
G1 X193.192 Y139.346 E.0268
;WIDTH:0.534836
G1 X193.176 Y139.624 E.01139
;WIDTH:0.567634
G1 X193.159 Y139.902 E.01215
;WIDTH:0.572818
G1 X193.157 Y139.936 E.0015
M204 P2500
;WIPE_START
G1 F14400
G1 X193.159 Y139.902 E-.00472
G1 X193.176 Y139.624 E-.03859
G1 X193.192 Y139.346 E-.03858
G1 X193.193 Y138.644 E-.09726
G1 X193.176 Y138.373 E-.03762
G1 X193.159 Y138.102 E-.03762
;WIPE_END
G1 E-.54561 F2100
G1 Z.4 F720
G1 X96.289 Y131.659 F18000
G1 Z.2 F720
G1 E.8 F2100
M204 P500
;WIDTH:0.499999
G1 F1800
