; generated by PrusaSlicer 2.7.4+MacOS-arm64 on 2024-05-12 at 10:33:29 UTC


;
;

;
;

;
;

;
;

;
;
; 

; external perimeters extrusion width = 0.45mm
; perimeters extrusion width = 0.45mm
; infill extrusion width = 0.45mm
; solid infill extrusion width = 0.45mm
; top infill extrusion width = 0.42mm
; first layer extrusion width = 0.50mm

M73 P0 R55
M201 X4000 Y4000 Z200 E2500 ; sets maximum accelerations, mm/sec^2
M203 X300 Y300 Z12 E120 ; sets maximum feedrates, mm / sec
M204 P4000 R1250 T4000 ; sets acceleration (P, T) and retract acceleration (R), mm/sec^2
M205 X8.00 Y8.00 Z2.00 E5.00 ; sets the jerk limits, mm/sec
M205 S0 T0 ; sets the minimum extruding and travel feed rate, mm/sec

M486 S0
M486 Atop.stl
M486 S-1

;TYPE:Custom
M17 ; enable steppers
M862.1 P0.4 ; nozzle diameter check
M862.3 P "MK3.5" ; printer model check
M862.5 P2 ; g-code level check
M862.6 P"Input shaper" ; FW feature check
M115 U5.2.1+13903

M555 X55.4907 Y53.438 W139.202 H99.1246

G90 ; use absolute coordinates
M83 ; extruder relative mode

M140 S60 ; set bed temp
M104 T0 S170 ; set extruder temp for bed leveling
M109 T0 R170 ; wait for temp
M190 S60 ; wait for bed temp

G28 ; home all

G29 P1 ; invalidate mbl & probe print area
G29 P1 X23 Y5 W80 H20 C ; probe near purge place
G29 P3.2 ; interpolate mbl probes
G29 P3.13 ; extrapolate mbl outside probe area
G29 A ; activate mbl

; prepare for purge
M104 S230
G0 X0 Y-4 Z15 F4800 ; move away and ready for the purge
M109 S230

; Extrude purge line

G92 E0 ; reset extruder position
G0 E7 X15 Z0.2 F500 ; purge
G0 X25 E4 F500 ; purge
G0 X35 E4 F650 ; purge
G0 X45 E4 F800 ; purge
G0 X48 Z0.05 F8000 ; wipe, move close to the bed
G0 X51 Z0.2 F8000 ; wipe, move quickly away from the bed

G92 E0
M221 S100 ; reset flow to 100%
G21 ; set units to millimeters
G90 ; use absolute coordinates
M83 ; use relative distances for extrusion





M572 S0.035 ; Filament gcode
M107
;LAYER_CHANGE
;Z:0.2
;HEIGHT:0.2
G1 E-.8 F2100
G1 Z.4 F720
M486 S0
G1 X114.295 Y87.088 F18000
G1 Z.2 F720
G1 E.8 F2100
M204 P500
;TYPE:Perimeter
;WIDTH:0.499999
G1 F1800
G1 X114.481 Y87.007 E.00771
G1 X114.663 Y86.802 E.01042
G1 X122.377 Y73.442 E.58633
G1 X122.75 Y72.858 E.02634
G1 X123.06 Y72.578 E.01588
G3 X123.718 Y72.395 I.756 J1.445 E.02615
G1 X132.588 Y72.395 E.33712
G2 X168.568 Y62.758 I-.026 J-72.083 E1.43191
G1 X175.844 Y58.558 E.3193
G1 X176.263 Y58.383 E.01726
G1 X176.716 Y58.373 E.01722
G3 X177.325 Y58.669 I-.375 J1.545 E.02593
G1 X177.59 Y58.979 E.0155
G1 X193.54 Y86.606 E1.21243
G1 X193.739 Y87.042 E.01822
G1 X193.786 Y87.524 E.01841
G1 X193.786 Y145.552 E2.20543
G1 X193.76 Y145.93 E.0144
G1 X193.572 Y146.375 E.01836
G1 X193.254 Y146.692 E.01707
G1 X192.933 Y146.845 E.01351
G1 X192.535 Y146.906 E.0153
G1 X152.333 Y146.911 E1.52793
G1 X152.035 Y147.022 E.01209
G1 X151.826 Y147.244 E.01159
G1 X151.737 Y147.508 E.01059
G3 X151.747 Y148.365 I-6.026 J.498 E.0326
G1 X151.582 Y148.735 E.0154
G1 X151.322 Y149.019 E.01463
G1 X150.973 Y149.202 E.01498
G1 X150.548 Y149.281 E.01643
G1 X133.333 Y149.286 E.65428
G1 X133.035 Y149.397 E.01209
G1 X132.826 Y149.619 E.01159
G1 X132.737 Y149.883 E.01059
G3 X132.74 Y150.749 I-4.43 J.449 E.03297
G1 X132.575 Y151.112 E.01515
G1 X132.309 Y151.411 E.01521
G1 X132 Y151.568 E.01317
G1 X131.551 Y151.656 E.01739
G1 X114.993 Y151.656 E.62931
G1 X114.328 Y151.62 E.02531
G1 X113.999 Y151.481 E.01357
G1 X113.691 Y151.234 E.01501
G1 X113.496 Y150.884 E.01523
G1 X113.408 Y150.507 E.01471
G1 X113.453 Y149.953 E.02112
G1 X113.395 Y149.689 E.01027
G1 X113.245 Y149.473 E.00999
G1 X112.945 Y149.304 E.01309
G1 X112.768 Y149.28 E.00679
G1 X95.733 Y149.281 E.64744
G1 X95.217 Y149.211 E.01979
G1 X94.926 Y149.067 E.01234
G1 X94.667 Y148.825 E.01347
G1 X94.48 Y148.5 E.01425
G1 X94.399 Y148.065 E.01682
G1 X94.399 Y145.216 E.10828
G1 X94.319 Y144.894 E.01261
G1 X94.126 Y144.668 E.0113
G2 X93.714 Y144.531 I-.461 J.695 E.01669
G1 X57.993 Y144.53 E1.35762
G1 X57.339 Y144.495 E.02489
G1 X56.938 Y144.319 E.01664
G1 X56.61 Y144.002 E.01734
G1 X56.456 Y143.676 E.0137
G1 X56.398 Y143.284 E.01506
G1 X56.398 Y88.736 E2.07317
G1 X56.432 Y88.094 E.02443
G1 X56.605 Y87.691 E.01667
G1 X56.919 Y87.361 E.01731
G1 X57.244 Y87.205 E.0137
G1 X57.632 Y87.145 E.01492
G1 X113.196 Y87.145 E2.11178
G1 X114.189 Y87.134 E.03774
M73 P0 R54
G1 X114.24 Y87.112 E.00211
M204 P2500
M204 T4000
G1 X114.24 Y87.112 F18000
G1 X114.135 Y86.678
M204 P500
;TYPE:External perimeter
G1 F1800
G1 X114.267 Y86.573 E.00641
G1 X122.169 Y72.887 E.60063
G1 X122.512 Y72.421 E.02199
G1 X122.831 Y72.177 E.01526
G1 X123.29 Y71.99 E.01884
G1 X123.689 Y71.938 E.01529
G1 X132.588 Y71.938 E.33822
G2 X168.342 Y62.361 I-.026 J-71.625 E1.42292
G1 X175.615 Y58.162 E.31918
G1 X176.157 Y57.934 E.02235
G1 X176.605 Y57.892 E.0171
G1 X176.981 Y57.953 E.01448
G1 X177.418 Y58.151 E.01823
G1 X177.75 Y58.429 E.01646
G1 X177.972 Y58.727 E.01412
G1 X193.939 Y86.382 E1.21367
G1 X194.184 Y86.923 E.02257
G1 X194.243 Y87.524 E.02295
G1 X194.243 Y145.552 E2.20543
G1 X194.209 Y146.032 E.01829
G1 X194.045 Y146.49 E.01849
G1 X193.856 Y146.771 E.01287
G1 X193.509 Y147.078 E.01761
G1 X193.069 Y147.286 E.0185
G1 X192.57 Y147.363 E.01919
G1 X152.418 Y147.363 E1.52603
G2 X152.203 Y147.513 I.028 J.269 E.0104
G1 X152.215 Y148.317 E.03056
G1 X152.057 Y148.846 E.02098
G1 X151.758 Y149.234 E.01862
G1 X151.427 Y149.49 E.0159
G1 X150.958 Y149.692 E.01941
G1 X150.575 Y149.738 E.01466
G1 X133.39 Y149.739 E.65314
G1 X133.238 Y149.825 E.00664
G1 X133.19 Y149.986 E.00639
G1 X133.237 Y150.52 E.02037
G1 X133.128 Y151.017 E.01934
G1 X132.957 Y151.362 E.01463
G1 X132.708 Y151.662 E.01482
G1 X132.303 Y151.948 E.01884
G3 X131.575 Y152.113 I-.818 J-1.933 E.02852
G1 X114.993 Y152.113 E.63022
G1 X114.393 Y152.088 E.02282
G1 X113.907 Y151.96 E.0191
G1 X113.571 Y151.757 E.01492
G1 X113.247 Y151.391 E.01858
G1 X113.055 Y151.011 E.01618
G1 X112.948 Y150.52 E.0191
G1 X112.996 Y149.962 E.02129
G1 X112.927 Y149.802 E.00662
G1 X112.768 Y149.737 E.00653
G1 X95.607 Y149.738 E.65223
G1 X95.076 Y149.651 E.02045
G1 X94.663 Y149.447 E.01751
G1 X94.304 Y149.112 E.01866
G1 X94.051 Y148.669 E.01939
G1 X93.942 Y148.077 E.02288
G1 X93.942 Y145.216 E.10874
G1 X93.851 Y145.034 E.00773
G1 X93.714 Y144.988 E.00549
G1 X57.993 Y144.988 E1.35762
G1 X57.23 Y144.942 E.02905
G1 X56.822 Y144.791 E.01653
G1 X56.537 Y144.602 E.013
G1 X56.225 Y144.259 E.01762
G1 X56.013 Y143.809 E.01891
G1 X55.941 Y143.317 E.0189
G1 X55.941 Y88.736 E2.07442
G1 X55.984 Y87.988 E.02848
M73 P1 R54
G1 X56.132 Y87.579 E.01653
G1 X56.319 Y87.293 E.01299
G1 X56.66 Y86.978 E.01764
G1 X57.107 Y86.764 E.01884
G1 X57.597 Y86.688 E.01885
G1 X113.196 Y86.688 E2.11311
G1 X114.075 Y86.679 E.03341
M204 P2500
;WIPE_START
G1 F14400
G1 X114.135 Y86.678 E-.00831
G1 X114.267 Y86.573 E-.02337
G1 X117.04 Y81.77 E-.76832
;WIPE_END
G1 Z.4 F720
G1 X168.996 Y82.629 F18000
G1 Z.2 F720
G1 E.8 F2100
M204 P500
;TYPE:Perimeter
G1 F1800
G1 X169.33 Y82.793 E.01414
G1 X169.753 Y83.102 E.01991
G1 X170.116 Y83.479 E.01989
G1 X170.408 Y83.915 E.01994
G1 X170.62 Y84.394 E.01991
G1 X170.746 Y84.902 E.01989
G1 X170.781 Y85.425 E.01992
G3 X170.355 Y86.91 I-3.25 J-.128 E.05928
G1 X170.039 Y87.343 E.02037
G1 X169.662 Y87.706 E.01989
G3 X168.356 Y88.315 I-1.99 J-2.563 E.05523
G1 X167.835 Y88.371 E.01992
G1 X167.313 Y88.336 E.01988
G1 X166.804 Y88.21 E.01993
G1 X166.325 Y87.998 E.01991
G1 X165.89 Y87.706 E.01991
G1 X165.512 Y87.343 E.01992
G1 X165.203 Y86.92 E.01991
G1 X164.972 Y86.449 E.01994
G1 X164.826 Y85.946 E.01991
G1 X164.77 Y85.425 E.01992
G1 X164.814 Y84.875 E.02097
G1 X164.969 Y84.287 E.02311
G1 X165.203 Y83.811 E.02016
G1 X165.512 Y83.388 E.01991
G1 X165.89 Y83.025 E.01992
G1 X166.325 Y82.733 E.01991
G1 X166.814 Y82.518 E.0203
G1 X167.351 Y82.392 E.02096
G3 X168.356 Y82.416 I.418 J3.519 E.03834
G1 X168.86 Y82.562 E.01994
G1 X168.942 Y82.602 E.00347
M204 P2500
G1 X168.942 Y82.602 F18000
G1 X168.879 Y83.076
M204 P500
;TYPE:External perimeter
G1 F1800
G3 X169.742 Y83.742 I-1.132 J2.36 E.04174
G1 X170.069 Y84.269 E.02357
G1 X170.223 Y84.677 E.01657
G3 X170.326 Y85.385 I-2.57 J.734 E.02727
G1 X170.251 Y85.949 E.02162
G3 X168.238 Y87.873 I-2.487 J-.587 E.11192
G3 X166.885 Y87.755 I-.445 J-2.707 E.05216
G3 X165.261 Y85.789 I.927 J-2.419 E.10133
G1 X165.233 Y85.275 E.01956
G3 X165.835 Y83.711 I2.613 J.108 E.06484
G3 X167.795 Y82.815 I1.973 J1.726 E.08441
G1 X168.422 Y82.907 E.02409
G3 X168.824 Y83.051 I-.675 J2.529 E.01625
M204 P2500
;WIPE_START
G1 F14400
G1 X168.879 Y83.076 E-.00837
G3 X169.742 Y83.742 I-1.133 J2.36 E-.15214
G1 X170.069 Y84.269 E-.08592
G1 X170.223 Y84.677 E-.06042
G3 X170.326 Y85.385 I-2.569 J.735 E-.09942
G1 X170.251 Y85.949 E-.07883
G3 X168.874 Y87.664 I-2.487 J-.587 E-.3149
;WIPE_END
G1 Z.4 F720
G1 X149.056 Y88.96 F18000
G1 Z.2 F720
G1 E.8 F2100
M204 P500
;TYPE:Perimeter
G1 F1800
G3 X148.805 Y88.937 I.076 J-2.206 E.00958
G1 X148.256 Y88.725 E.02237
G1 X147.81 Y88.337 E.02247
G3 X147.504 Y87.774 I1.828 J-1.358 E.02443
G1 X144.116 Y75.142 E.49706
G1 X144.066 Y74.739 E.01543
G1 X144.135 Y74.211 E.02024
G1 X144.309 Y73.833 E.01582
G1 X144.696 Y73.387 E.02244
G1 X144.89 Y73.251 E.009
G1 X145.316 Y73.063 E.0177
G1 X157.892 Y69.693 E.49483
G1 X158.375 Y69.642 E.01846
G1 X158.708 Y69.682 E.01275
G1 X159.201 Y69.886 E.02028
G1 X159.612 Y70.239 E.02059
G1 X159.783 Y70.467 E.01083
G1 X159.971 Y70.893 E.0177
G1 X163.342 Y83.475 E.49506
G1 X163.391 Y83.872 E.0152
G1 X163.321 Y84.401 E.02028
G1 X163.064 Y84.914 E.02181
G1 X162.711 Y85.268 E.019
G3 X162.055 Y85.571 I-1.591 J-2.588 E.02753
G1 X149.56 Y88.919 E.49164
G3 X149.116 Y88.961 I-.428 J-2.165 E.01698
M204 P2500
G1 X149.116 Y88.961 F18000
G1 X149.025 Y88.493
M204 P500
;TYPE:External perimeter
G1 F1800
G3 X148.771 Y88.461 I.13 J-2.021 E.00974
G1 X148.384 Y88.265 E.01649
G1 X148.088 Y87.95 E.01643
G1 X147.933 Y87.618 E.01393
G1 X144.558 Y75.023 E.49558
G1 X144.522 Y74.778 E.00941
G1 X144.573 Y74.348 E.01646
G1 X144.769 Y73.961 E.01649
G1 X145.084 Y73.665 E.01643
G1 X145.435 Y73.504 E.01468
G1 X158.01 Y70.135 E.49478
G1 X158.453 Y70.101 E.01689
G1 X158.686 Y70.15 E.00905
G1 X159.073 Y70.346 E.01649
G1 X159.369 Y70.661 E.01643
G1 X159.53 Y71.012 E.01468
G1 X162.9 Y83.589 E.49487
G1 X162.935 Y83.832 E.00933
G1 X162.884 Y84.263 E.01649
G1 X162.688 Y84.65 E.01649
G1 X162.373 Y84.946 E.01643
G1 X161.937 Y85.129 E.01797
G1 X149.445 Y88.477 E.49153
G3 X149.084 Y88.496 I-.29 J-2.005 E.01376
M204 P2500
;WIPE_START
G1 F14400
G1 X149.025 Y88.493 E-.00818
G3 X148.771 Y88.461 I.126 J-2.022 E-.03549
G1 X148.384 Y88.265 E-.0601
G1 X148.088 Y87.95 E-.05988
G1 X147.933 Y87.618 E-.05076
G1 X146.839 Y83.535 E-.58559
;WIPE_END
G1 Z.4 F720
G1 X153.002 Y92.167 F18000
G1 Z.2 F720
G1 E.8 F2100
M204 P500
;TYPE:Perimeter
G1 F1800
G1 X153.183 Y91.761 E.01689
G1 X153.593 Y91.336 E.02244
G1 X154.066 Y91.09 E.02026
G1 X154.584 Y91.006 E.01994
G1 X167.603 Y91.006 E.4948
G1 X168.005 Y91.062 E.01543
G1 X168.474 Y91.25 E.0192
G1 X168.891 Y91.603 E.02076
G1 X169.178 Y92.08 E.02116
G3 X169.3 Y92.703 I-4.306 J1.167 E.02415
G1 X169.3 Y105.722 E.4948
G1 X169.244 Y106.125 E.01546
G1 X169.057 Y106.591 E.01908
G1 X168.72 Y106.996 E.02002
G1 X168.286 Y107.267 E.01945
G1 X168.064 Y107.348 E.00898
G1 X167.603 Y107.42 E.01773
G1 X154.524 Y107.417 E.49708
G1 X154.181 Y107.364 E.01319
G1 X153.7 Y107.167 E.01975
G1 X153.323 Y106.853 E.01865
G1 X153.039 Y106.405 E.02016
G1 X152.897 Y105.843 E.02203
G1 X152.886 Y105.722 E.00462
G1 X152.886 Y92.703 E.4948
G1 X152.942 Y92.301 E.01543
G1 X152.978 Y92.222 E.0033
M204 P2500
G1 X152.978 Y92.222 F18000
G1 X153.446 Y92.265
M204 P500
;TYPE:External perimeter
G1 F1800
G3 X153.533 Y92.055 I1.961 J.689 E.00864
G1 X153.822 Y91.732 E.01647
G1 X154.204 Y91.527 E.01648
G1 X154.584 Y91.463 E.01465
G1 X167.603 Y91.463 E.4948
G1 X167.849 Y91.491 E.00941
G1 X168.251 Y91.652 E.01646
G1 X168.574 Y91.941 E.01647
G1 X168.779 Y92.323 E.01648
G1 X168.843 Y92.703 E.01465
G1 X168.843 Y105.722 E.4948
G1 X168.815 Y105.968 E.00941
G1 X168.654 Y106.371 E.01649
G1 X168.365 Y106.694 E.01647
G1 X167.983 Y106.898 E.01646
G1 X167.603 Y106.963 E.01465
G1 X154.564 Y106.962 E.49556
G1 X154.338 Y106.934 E.00866
G1 X153.935 Y106.773 E.01649
G1 X153.612 Y106.484 E.01647
G1 X153.408 Y106.103 E.01643
G1 X153.343 Y105.722 E.01469
G1 X153.343 Y92.703 E.4948
G3 X153.427 Y92.322 I2.064 J.251 E.01485
M204 P2500
;WIPE_START
G1 F14400
G1 X153.446 Y92.265 E-.00832
G3 X153.533 Y92.055 I1.961 J.689 E-.03151
G1 X153.822 Y91.732 E-.06005
G1 X154.204 Y91.527 E-.06006
G1 X154.584 Y91.463 E-.05339
G1 X158.819 Y91.463 E-.58667
;WIPE_END
G1 Z.4 F720
G1 X169.203 Y111.172 F18000
G1 Z.2 F720
G1 E.8 F2100
M204 P500
;TYPE:Perimeter
G1 F1800
G1 X169.229 Y111.242 E.00284
G1 X169.3 Y111.703 E.01773
G1 X169.3 Y124.722 E.4948
G1 X169.244 Y125.125 E.01546
G1 X169.057 Y125.591 E.01908
G1 X168.72 Y125.996 E.02002
G1 X168.286 Y126.267 E.01945
G1 X168.064 Y126.348 E.00898
G1 X167.603 Y126.42 E.01773
G1 X156.519 Y126.42 E.42126
G1 X154.584 Y126.42 E.07354
G1 X154.181 Y126.364 E.01546
G1 X153.69 Y126.158 E.02024
;WIDTH:0.511896
G1 X153.325 Y125.862 E.01833
G1 X153.05 Y125.424 E.02017
;WIDTH:0.499999
G1 X152.958 Y125.183 E.0098
G1 X152.886 Y124.597 E.02244
G1 X152.886 Y111.703 E.49005
G1 X152.942 Y111.301 E.01543
G1 X153.158 Y110.793 E.02098
G1 X153.532 Y110.376 E.02129
G1 X154.065 Y110.09 E.02299
G1 X154.584 Y110.006 E.01998
G1 X167.603 Y110.006 E.4948
G1 X168.005 Y110.062 E.01543
G1 X168.487 Y110.258 E.01978
G1 X168.877 Y110.586 E.01937
G1 X169.148 Y111.02 E.01945
G1 X169.183 Y111.115 E.00385
M204 P2500
G1 X169.183 Y111.115 F18000
G1 X168.792 Y111.397
M204 P500
;TYPE:External perimeter
G1 F1800
G1 X168.843 Y111.703 E.01179
G1 X168.843 Y124.722 E.4948
G1 X168.815 Y124.968 E.00941
G1 X168.654 Y125.371 E.01649
G1 X168.365 Y125.694 E.01647
G1 X167.983 Y125.898 E.01646
G1 X167.603 Y125.963 E.01465
G1 X156.519 Y125.963 E.42126
G1 X154.584 Y125.963 E.07354
G1 X154.338 Y125.934 E.00941
G1 X153.935 Y125.773 E.01649
G1 X153.612 Y125.484 E.01647
G1 X153.408 Y125.103 E.01643
G1 X153.343 Y124.597 E.01939
G1 X153.343 Y111.703 E.49005
G1 X153.372 Y111.457 E.00941
G1 X153.533 Y111.055 E.01646
G1 X153.822 Y110.732 E.01647
G1 X154.204 Y110.527 E.01648
G1 X154.584 Y110.463 E.01465
G1 X167.603 Y110.463 E.4948
G1 X167.849 Y110.491 E.00941
G1 X168.251 Y110.652 E.01646
G1 X168.574 Y110.941 E.01647
G1 X168.779 Y111.323 E.01648
G1 X168.782 Y111.338 E.00058
M204 P2500
;WIPE_START
G1 F14400
G1 X168.792 Y111.397 E-.00829
G1 X168.843 Y111.703 E-.04298
G1 X168.843 Y117.108 E-.74873
;WIPE_END
G1 Z.4 F720
G1 X133.993 Y146.6 F18000
G1 Z.2 F720
G1 E.8 F2100
M204 P500
;TYPE:Perimeter
G1 F1800
G1 X133.897 Y146.218 E.01497
G1 X133.886 Y146.097 E.00462
G1 X133.886 Y133.078 E.4948
G1 X133.942 Y132.676 E.01543
G1 X134.158 Y132.167 E.02101
G1 X134.273 Y132.028 E.00686
G1 X134.532 Y131.751 E.01441
G1 X135.065 Y131.465 E.02299
G1 X135.584 Y131.381 E.01998
G1 X148.603 Y131.381 E.4948
G1 X149.005 Y131.437 E.01543
G1 X149.496 Y131.643 E.02024
;WIDTH:0.511103
G1 X149.862 Y131.938 E.0183
G1 X150.137 Y132.377 E.02017
;WIDTH:0.499999
G1 X150.229 Y132.617 E.00977
G1 X150.3 Y133.203 E.02243
G1 X150.3 Y146.097 E.49005
G1 X150.244 Y146.5 E.01546
G1 X150.07 Y146.945 E.01816
G1 X149.753 Y147.338 E.01919
G1 X149.286 Y147.642 E.02118
G1 X148.724 Y147.784 E.02203
G1 X148.603 Y147.795 E.00462
G1 X135.584 Y147.795 E.4948
G1 X135.181 Y147.739 E.01546
G1 X134.642 Y147.498 E.02244
G1 X134.257 Y147.149 E.01975
G1 X134.039 Y146.78 E.01629
G1 X134.008 Y146.658 E.00478
M204 P2500
G1 X134.008 Y146.658 F18000
G1 X134.497 Y146.644
M204 P500
;TYPE:External perimeter
G1 F1800
G1 X134.408 Y146.478 E.00716
G1 X134.343 Y146.097 E.01469
G1 X134.343 Y133.078 E.4948
G1 X134.372 Y132.832 E.00941
G1 X134.533 Y132.429 E.01649
G1 X134.623 Y132.322 E.00531
G1 X134.822 Y132.107 E.01113
G1 X135.204 Y131.902 E.01648
G1 X135.584 Y131.838 E.01465
G1 X148.603 Y131.838 E.4948
G1 X148.849 Y131.866 E.00941
G1 X149.251 Y132.027 E.01646
G1 X149.574 Y132.316 E.01647
G1 X149.779 Y132.698 E.01648
G1 X149.843 Y133.203 E.01935
G1 X149.843 Y146.097 E.49005
G1 X149.815 Y146.343 E.00941
