; generated by PrusaSlicer 2.7.4+MacOS-arm64 on 2024-05-12 at 11:12:16 UTC


;
;
; 

; external perimeters extrusion width = 0.45mm
; perimeters extrusion width = 0.45mm
; infill extrusion width = 0.45mm
; solid infill extrusion width = 0.45mm
; top infill extrusion width = 0.40mm
; first layer extrusion width = 0.42mm

M73 P0 R100
M73 Q0 S102
M201 X1000 Y1000 Z200 E5000 ; sets maximum accelerations, mm/sec^2
M203 X200 Y200 Z12 E120 ; sets maximum feedrates, mm / sec
M204 S1250 T1250 ; sets acceleration (S) and retract acceleration (R), mm/sec^2
M205 X8.00 Y8.00 Z0.40 E4.50 ; sets the jerk limits, mm/sec
M205 S0 T0 ; sets the minimum extruding and travel feed rate, mm/sec

; printing object top.stl id:0 copy 0
; stop printing object top.stl id:0 copy 0

;TYPE:Custom
M862.3 P "MK3S" ; printer model check
M862.1 P0.4 ; nozzle diameter check
M115 U3.13.3 ; tell printer latest fw version
G90 ; use absolute coordinates
M83 ; extruder relative mode
M104 S215 ; set extruder temp
M140 S60 ; set bed temp
M190 S60 ; wait for bed temp
M109 S215 ; wait for extruder temp
G28 W ; home all without mesh bed level
G80 X52.3428 Y54.4739 W145.143 H101.054 ; mesh bed levelling

G1 Z0.2 F720
G1 Y-3 F1000 ; go outside print area
G92 E0
G1 X60 E9 F1000 ; intro line
G1 X100 E12.5 F1000 ; intro line

G92 E0
M221 S95

; Don't change E values below. Excessive value can damage the printer.

M907 E538 ; set extruder motor current
G21 ; set units to millimeters
G90 ; use absolute coordinates
M83 ; use relative distances for extrusion

M900 K0.05 ; Filament gcode LA 1.5
M900 K30 ; Filament gcode LA 1.0




M107
;LAYER_CHANGE
;Z:0.2
;HEIGHT:0.2
G1 E-.8 F2100
G1 Z.6 F720
G1 X69.773 Y56.361 F10800
G1 Z.2 F720
G1 E.8 F2100
M204 S800
;TYPE:Skirt/Brim
;WIDTH:0.42
G1 F1200
G1 X70.275 Y55.859 E.02226
G1 X71.427 Y55.113 E.04303
G1 X72.53 Y54.753 E.03638
G1 X73.839 Y54.677 E.04111
G1 X74.631 Y54.801 E.02514
G1 X193.51 Y83.585 E3.83507
G1 X194.531 Y83.944 E.03393
G1 X195.366 Y84.454 E.03068
G1 X196.225 Y85.294 E.03767
G1 X196.746 Y86.102 E.03014
G1 X197.125 Y87.078 E.03283
G1 X197.297 Y88.337 E.03984
G1 X197.296 Y143.402 E1.72652
G1 X197.223 Y144.174 E.02431
G1 X197.033 Y144.915 E.02399
G1 X196.669 Y145.724 E.02781
G1 X196.307 Y146.279 E.02078
G1 X195.678 Y146.961 E.02909
G1 X194.981 Y147.479 E.02723
G1 X194.016 Y147.938 E.03351
G1 X193.088 Y148.167 E.02997
G1 X135.489 Y155.338 E1.81992
G1 X118.034 Y155.325 E.54729
G1 X56.854 Y150.554 E1.92408
G1 X55.817 Y150.315 E.03337
G1 X54.595 Y149.688 E.04306
G1 X53.732 Y148.912 E.03639
G1 X53.159 Y148.099 E.03119
G1 X52.701 Y146.98 E.03791
G1 X52.536 Y145.909 E.03398
G1 X52.531 Y87.351 E1.83604
G1 X52.616 Y86.454 E.02825
G1 X52.823 Y85.693 E.02473
G1 X53.184 Y84.913 E.02695
G1 X69.343 Y56.941 E1.01287
G1 X69.737 Y56.409 E.02076
M204 S1000
;WIPE_START
G1 F8640
G1 X69.773 Y56.361 E-.01385
G1 X70.275 Y55.859 E-.16393
G1 X71.427 Y55.113 E-.3169
G1 X72.53 Y54.753 E-.26791
G1 X72.692 Y54.744 E-.03741
;WIPE_END
G1 Z.6 F720
; printing object top.stl id:0 copy 0
G1 X155.743 Y145.129 F10800
G1 Z.2 F720
M73 Q0 S101
G1 E.8 F2100
M204 S800
;TYPE:Perimeter
;WIDTH:0.419999
G1 F1200
G1 X155.721 Y145.216 E.00281
G1 X155.721 Y147.96 E.08604
G1 X155.666 Y148.443 E.01524
G1 X155.538 Y148.742 E.0102
G1 X155.303 Y149.037 E.01183
G1 X154.985 Y149.259 E.01216
G1 X154.801 Y149.317 E.00605
G1 X154.389 Y149.4 E.01318
G1 X137.806 Y149.4 E.51995
G1 X137.102 Y149.415 E.02208
G1 X136.835 Y149.563 E.00957
G1 X136.701 Y149.772 E.00778
G1 X136.667 Y149.992 E.00698
G1 X136.712 Y150.509 E.01627
G1 X136.629 Y150.893 E.01232
G1 X136.412 Y151.296 E.01435
G1 X136.091 Y151.573 E.01329
G1 X135.682 Y151.74 E.01385
G1 X135.375 Y151.775 E.00969
G1 X118.559 Y151.775 E.52725
G1 X117.98 Y151.696 E.01832
G1 X117.702 Y151.565 E.00964
G1 X117.431 Y151.321 E.01143
G1 X117.193 Y150.933 E.01427
G1 X117.109 Y150.505 E.01368
G1 X117.143 Y150.039 E.01465
G1 X117.123 Y149.801 E.00749
G1 X116.975 Y149.559 E.00889
G1 X116.728 Y149.42 E.00889
G1 X116.583 Y149.4 E.00459
G1 X99.454 Y149.389 E.53707
G1 X99.136 Y149.357 E.01002
G1 X98.718 Y149.193 E.01408
G1 X98.402 Y148.912 E.01326
G1 X98.182 Y148.549 E.01331
G1 X98.109 Y148.156 E.01253
G1 X98.143 Y147.665 E.01543
G1 X98.123 Y147.426 E.00752
G1 X97.975 Y147.184 E.00889
G1 X97.729 Y147.045 E.00886
G1 X97.582 Y147.025 E.00465
G1 X57.567 Y147.025 E1.25464
G1 X57.031 Y146.96 E.01693
G1 X56.679 Y146.793 E.01222
G1 X56.329 Y146.442 E.01554
G1 X56.122 Y145.957 E.01653
G1 X56.094 Y145.68 E.00873
G1 X56.094 Y87.523 E1.82347
G1 X56.145 Y87.011 E.01613
G1 X56.29 Y86.659 E.01194
G1 X72.264 Y58.991 E1.00171
G1 X72.573 Y58.586 E.01597
G1 X72.76 Y58.457 E.00712
G1 X73.076 Y58.304 E.01101
G1 X73.405 Y58.245 E.01048
G1 X73.759 Y58.269 E.01112
G1 X74.15 Y58.415 E.01309
G1 X81.488 Y62.651 E.26566
G1 X83.589 Y63.818 E.07536
G1 X85.738 Y64.917 E.07568
G1 X87.736 Y65.862 E.0693
G1 X88.887 Y66.371 E.03946
G1 X90.917 Y67.212 E.0689
G1 X93.264 Y68.097 E.07865
G1 X95.328 Y68.798 E.06835
G1 X96.529 Y69.174 E.03946
G1 X98.935 Y69.859 E.07844
G1 X101.028 Y70.382 E.06764
G1 X102.235 Y70.653 E.03879
G1 X104.717 Y71.143 E.07932
G1 X105.987 Y71.357 E.04038
G1 X107.852 Y71.634 E.05912
G1 X110.405 Y71.931 E.08059
G1 X112.627 Y72.114 E.06991
G1 X115.194 Y72.24 E.08058
G1 X117.412 Y72.275 E.06955
G1 X125.862 Y72.275 E.26494
G1 X126.623 Y72.318 E.0239
G1 X127 Y72.472 E.01277
G1 X127.249 Y72.662 E.00982
G1 X127.489 Y72.969 E.01222
G1 X135.46 Y86.772 E.49976
G1 X135.663 Y86.957 E.00861
G1 X135.93 Y87.024 E.00863
G1 X192.282 Y87.025 E1.76687
G1 X192.791 Y87.089 E.01608
G1 X193.149 Y87.26 E.01244
G1 X193.41 Y87.501 E.01114
G1 X193.662 Y87.979 E.01694
G1 X193.722 Y88.448 E.01482
G1 X193.722 Y143.202 E1.71677
G1 X193.66 Y143.711 E.01608
M73 P0 R99
G1 X193.491 Y144.069 E.01241
G1 X193.253 Y144.332 E.01112
G1 X192.865 Y144.559 E.01409
G1 X192.382 Y144.65 E.01541
G1 X156.207 Y144.656 E1.13424
G1 X155.948 Y144.763 E.00879
G1 X155.788 Y144.949 E.00769
G1 X155.757 Y145.071 E.00395
M204 S1000
G1 X156.098 Y145.216 F10800
M204 S800
;TYPE:External perimeter
G1 F1200
G1 X156.098 Y147.96 E.08604
G1 X156.033 Y148.545 E.01846
G1 X155.865 Y148.937 E.01337
G1 X155.564 Y149.315 E.01515
G1 X155.154 Y149.601 E.01567
G1 X154.84 Y149.701 E.01033
G1 X154.404 Y149.777 E.01388
G1 X137.451 Y149.777 E.53155
G1 X137.127 Y149.809 E.01021
G1 X137.055 Y149.901 E.00366
G1 X137.074 Y150.319 E.01312
G1 X137.064 Y150.706 E.01214
G1 X136.906 Y151.228 E.0171
G1 X136.699 Y151.547 E.01192
G1 X136.291 Y151.899 E.0169
G1 X135.777 Y152.108 E.0174
G1 X135.397 Y152.152 E.01199
G1 X118.428 Y152.152 E.53205
G1 X117.867 Y152.06 E.01782
G1 X117.504 Y151.888 E.01259
G1 X117.142 Y151.563 E.01525
G1 X116.935 Y151.255 E.01164
G1 X116.793 Y150.896 E.0121
G1 X116.73 Y150.478 E.01325
G1 X116.771 Y149.962 E.01623
G1 X116.713 Y149.83 E.00452
G1 X116.582 Y149.777 E.00443
G1 X99.454 Y149.766 E.53704
G1 X99.052 Y149.724 E.01267
G1 X98.7 Y149.602 E.01168
G1 X98.379 Y149.407 E.01178
G1 X98.113 Y149.154 E.01151
G1 X97.911 Y148.847 E.01152
G1 X97.783 Y148.511 E.01127
G1 X97.73 Y148.106 E.01281
G1 X97.771 Y147.587 E.01632
G1 X97.713 Y147.455 E.00452
G1 X97.582 Y147.402 E.00443
G1 X57.427 Y147.402 E1.25903
G1 X56.919 Y147.325 E.01611
G1 X56.469 Y147.111 E.01562
G1 X56.115 Y146.797 E.01484
G1 X55.918 Y146.508 E.01097
G1 X55.751 Y146.041 E.01555
G1 X55.717 Y145.699 E.01078
G1 X55.717 Y87.523 E1.82406
G1 X55.777 Y86.912 E.01925
G1 X55.951 Y86.492 E.01425
G1 X71.993 Y58.708 E1.00593
G1 X72.314 Y58.307 E.01611
M73 P1 R99
M73 Q1 S101
G1 X72.724 Y58.024 E.01562
G1 X73.169 Y57.875 E.01471
G1 X73.469 Y57.866 E.00941
G1 X73.852 Y57.903 E.01206
G1 X74.322 Y58.079 E.01574
G1 X81.676 Y62.325 E.26625
G1 X83.772 Y63.488 E.07516
G1 X85.915 Y64.584 E.07547
G1 X87.889 Y65.517 E.06846
G1 X89.031 Y66.023 E.03916
G1 X91.05 Y66.86 E.06853
G1 X93.386 Y67.74 E.07827
G1 X95.449 Y68.441 E.06832
G1 X96.641 Y68.814 E.03916
G1 X99.023 Y69.492 E.07765
G1 X101.119 Y70.016 E.06774
G1 X102.318 Y70.285 E.03853
G1 X104.78 Y70.771 E.07868
G1 X106.042 Y70.984 E.04013
G1 X107.895 Y71.259 E.05874
G1 X110.436 Y71.556 E.08021
G1 X112.645 Y71.738 E.0695
G1 X115.2 Y71.863 E.08021
G1 X117.409 Y71.898 E.06927
G1 X126.198 Y71.898 E.27557
G1 X126.72 Y71.951 E.01645
G1 X127.189 Y72.142 E.01588
G1 X127.516 Y72.392 E.01291
G1 X127.802 Y72.757 E.01454
G1 X135.362 Y85.852 E.4741
G1 X135.797 Y86.592 E.02691
G1 X135.93 Y86.647 E.00451
G1 X192.406 Y86.647 E1.77076
G1 X192.904 Y86.725 E.0158
G1 X193.363 Y86.945 E.01596
G1 X193.708 Y87.263 E.01471
G1 X193.914 Y87.62 E.01292
G1 X194.055 Y87.973 E.01192
G1 X194.099 Y88.448 E.01496
G1 X194.099 Y143.32 E1.72047
G1 X194.025 Y143.821 E.01588
G1 X193.808 Y144.281 E.01595
G1 X193.493 Y144.628 E.01469
G1 X192.89 Y144.947 E.02139
G1 X192.405 Y145.027 E.01541
G1 X156.286 Y145.027 E1.13248
G1 X156.173 Y145.065 E.00374
G1 X156.125 Y145.162 E.00339
M204 S1000
;WIPE_START
G1 F8640
G1 X156.098 Y145.216 E-.01394
G1 X156.098 Y147.96 E-.6336
G1 X156.033 Y148.545 E-.13591
G1 X156.005 Y148.611 E-.01655
;WIPE_END
G1 Z.6 F720
G1 X175.936 Y108.781 F10800
G1 Z.2 F720
G1 E.8 F2100
M204 S800
;TYPE:Perimeter
G1 F1200
G1 X175.882 Y108.93 E.00497
G1 X175.82 Y109.328 E.01263
G1 X175.821 Y122.383 E.40933
G1 X175.917 Y122.88 E.01587
G1 X175.44 Y122.643 E.0167
G1 X174.956 Y122.504 E.01579
G1 X174.379 Y122.453 E.01816
G1 X173.857 Y122.504 E.01644
G1 X173.355 Y122.651 E.0164
G1 X172.878 Y122.893 E.01677
G1 X172.932 Y122.745 E.00494
G1 X172.994 Y122.347 E.01263
G1 X172.993 Y109.292 E.40933
G1 X172.896 Y108.794 E.01591
G1 X173.006 Y108.861 E.00404
G1 X173.466 Y109.066 E.01579
G1 X173.954 Y109.188 E.01577
G1 X174.456 Y109.223 E.01578
G1 X174.956 Y109.171 E.01576
G1 X175.458 Y109.024 E.0164
G1 X175.882 Y108.809 E.01491
M204 S1000
;WIPE_START
G1 F8640
G1 X175.936 Y108.781 E-.01405
G1 X175.882 Y108.93 E-.03659
G1 X175.82 Y109.328 E-.09301
G1 X175.82 Y112.17 E-.65635
;WIPE_END
G1 Z.6 F720
G1 X171.923 Y123.839 F10800
G1 Z.2 F720
G1 E.8 F2100
M204 S800
G1 F1200
G1 X171.416 Y123.924 E.01612
G1 X158.397 Y123.924 E.4082
G1 X158.036 Y123.876 E.01142
G1 X157.536 Y123.66 E.01708
G1 X157.134 Y123.277 E.01741
G1 X156.889 Y122.787 E.01718
G1 X156.82 Y122.347 E.01396
G1 X156.82 Y109.326 E.40826
G1 X156.836 Y109.111 E.00676
G1 X156.99 Y108.633 E.01575
G1 X157.316 Y108.191 E.01722
G1 X157.774 Y107.887 E.01724
G1 X157.957 Y107.82 E.00611
G1 X158.397 Y107.75 E.01397
G1 X171.416 Y107.75 E.4082
G1 X171.814 Y107.812 E.01263
G1 X171.963 Y107.866 E.00497
G1 X171.72 Y107.389 E.01678
G1 X171.573 Y106.887 E.0164
G1 X171.521 Y106.387 E.01576
G1 X171.556 Y105.885 E.01578
G1 X171.678 Y105.397 E.01577
G1 X171.923 Y104.839 E.01911
G1 X171.416 Y104.924 E.01612
G1 X158.397 Y104.924 E.4082
G1 X158.036 Y104.876 E.01142
G1 X157.536 Y104.66 E.01708
G1 X157.134 Y104.277 E.01741
G1 X156.889 Y103.787 E.01718
G1 X156.82 Y103.347 E.01396
G1 X156.82 Y90.328 E.4082
G1 X156.868 Y89.966 E.01145
G1 X157.088 Y89.463 E.01721
G1 X157.467 Y89.064 E.01725
G1 X157.957 Y88.82 E.01716
G1 X158.397 Y88.75 E.01397
G1 X171.416 Y88.75 E.4082
G1 X171.778 Y88.799 E.01145
G1 X172.281 Y89.019 E.01721
G1 X172.68 Y89.397 E.01723
G1 X172.913 Y89.84 E.01569
G1 X172.994 Y90.328 E.01551
G1 X172.994 Y103.347 E.4082
G1 X172.932 Y103.745 E.01263
G1 X172.878 Y103.893 E.00494
G1 X173.355 Y103.651 E.01677
G1 X173.857 Y103.504 E.0164
G1 X174.379 Y103.453 E.01644
G1 X174.956 Y103.504 E.01816
G1 X175.44 Y103.643 E.01579
G1 X175.917 Y103.88 E.0167
G1 X175.821 Y103.383 E.01587
G1 X175.82 Y90.328 E.40933
G1 X175.868 Y89.966 E.01145
G1 X176.088 Y89.463 E.01721
G1 X176.467 Y89.064 E.01725
G1 X176.957 Y88.82 E.01716
G1 X177.397 Y88.75 E.01397
G1 X190.416 Y88.75 E.4082
G1 X190.778 Y88.799 E.01145
G1 X191.281 Y89.019 E.01721
G1 X191.68 Y89.397 E.01723
G1 X191.924 Y89.888 E.01719
G1 X191.994 Y90.328 E.01397
G1 X191.994 Y103.347 E.4082
G1 X191.945 Y103.708 E.01142
G1 X191.725 Y104.212 E.01724
G1 X191.347 Y104.61 E.01721
G1 X190.904 Y104.844 E.01571
G1 X190.416 Y104.924 E.01551
G1 X177.397 Y104.924 E.4082
G1 X176.999 Y104.862 E.01263
G1 X176.851 Y104.808 E.00494
G1 X177.093 Y105.286 E.0168
G1 X177.24 Y105.788 E.0164
G1 X177.292 Y106.288 E.01576
G1 X177.257 Y106.79 E.01578
G1 X177.135 Y107.278 E.01577
G1 X176.891 Y107.836 E.0191
G1 X177.397 Y107.75 E.01609
G1 X190.416 Y107.75 E.4082
G1 X190.778 Y107.799 E.01145
G1 X191.281 Y108.019 E.01721
G1 X191.68 Y108.397 E.01723
G1 X191.924 Y108.888 E.01719
G1 X191.994 Y109.328 E.01397
G1 X191.994 Y122.347 E.4082
G1 X191.945 Y122.708 E.01142
G1 X191.725 Y123.212 E.01724
G1 X191.347 Y123.61 E.01721
G1 X190.904 Y123.844 E.01571
G1 X190.416 Y123.924 E.01551
G1 X177.397 Y123.924 E.4082
G1 X176.999 Y123.862 E.01263
G1 X176.851 Y123.808 E.00494
G1 X177.093 Y124.286 E.0168
G1 X177.24 Y124.788 E.0164
G1 X177.292 Y125.288 E.01576
G1 X177.257 Y125.79 E.01578
G1 X177.135 Y126.278 E.01577
G1 X176.891 Y126.836 E.0191
G1 X177.397 Y126.75 E.01609
G1 X190.416 Y126.75 E.4082
G1 X190.778 Y126.799 E.01145
G1 X191.281 Y127.019 E.01721
G1 X191.68 Y127.397 E.01723
G1 X191.924 Y127.888 E.01719
G1 X191.994 Y128.328 E.01397
G1 X191.994 Y141.347 E.4082
G1 X191.945 Y141.708 E.01142
G1 X191.725 Y142.212 E.01724
G1 X191.347 Y142.61 E.01721
G1 X190.856 Y142.855 E.01721
G1 X190.416 Y142.924 E.01396
G1 X177.397 Y142.924 E.4082
G1 X177.036 Y142.876 E.01142
M73 Q1 S100
G1 X176.532 Y142.656 E.01724
G1 X176.134 Y142.277 E.01723
G1 X175.9 Y141.834 E.01571
G1 X175.82 Y141.347 E.01547
G1 X175.82 Y128.328 E.4082
G1 X175.882 Y127.93 E.01263
G1 X175.936 Y127.781 E.00497
G1 X175.458 Y128.024 E.01681
G1 X174.956 Y128.171 E.0164
G1 X174.456 Y128.223 E.01576
G1 X173.954 Y128.188 E.01578
G1 X173.466 Y128.066 E.01577
G1 X172.908 Y127.821 E.01911
G1 X172.994 Y128.328 E.01612
G1 X172.994 Y141.347 E.4082
G1 X172.945 Y141.708 E.01142
G1 X172.725 Y142.212 E.01724
G1 X172.347 Y142.61 E.01721
G1 X171.856 Y142.855 E.01721
G1 X171.416 Y142.924 E.01396
G1 X158.397 Y142.924 E.4082
G1 X158.036 Y142.876 E.01142
G1 X157.532 Y142.656 E.01724
G1 X157.171 Y142.334 E.01517
G1 X156.956 Y141.97 E.01326
G1 X156.828 Y141.447 E.01688
G1 X156.82 Y141.347 E.00315
G1 X156.82 Y128.326 E.40826
G1 X156.872 Y127.956 E.01172
G1 X157.088 Y127.463 E.01688
G1 X157.467 Y127.064 E.01725
G1 X157.909 Y126.831 E.01567
G1 X158.397 Y126.75 E.01551
G1 X171.416 Y126.75 E.4082
G1 X171.814 Y126.812 E.01263
G1 X171.963 Y126.866 E.00497
G1 X171.72 Y126.389 E.01678
G1 X171.573 Y125.887 E.0164
G1 X171.521 Y125.387 E.01576
G1 X171.556 Y124.885 E.01578
G1 X171.678 Y124.397 E.01577
G1 X171.898 Y123.894 E.01721
M204 S1000
;WIPE_START
G1 F8640
G1 X171.923 Y123.839 E-.01395
G1 X171.416 Y123.924 E-.1187
G1 X168.526 Y123.924 E-.66735
;WIPE_END
G1 Z.6 F720
G1 X172.458 Y122.936 F10800
G1 Z.2 F720
G1 E.8 F2100
M204 S800
;TYPE:External perimeter
;WIDTH:0.510153
G1 F1200
G1 X172.405 Y123.078 E.00589
G1 X172.176 Y123.316 E.01283
;WIDTH:0.493389
G1 X171.967 Y123.402 E.00847
;WIDTH:0.456694
G1 X171.757 Y123.489 E.00782
;WIDTH:0.419999
G1 X171.316 Y123.547 E.01395
G1 X158.397 Y123.547 E.40507
G1 X158.165 Y123.521 E.00732
G1 X157.774 Y123.367 E.01318
G1 X157.46 Y123.089 E.01315
G1 X157.26 Y122.72 E.01316
G1 X157.197 Y122.347 E.01186
G1 X157.197 Y109.327 E.40823
G1 X157.212 Y109.143 E.00579
G1 X157.377 Y108.705 E.01468
G1 X157.655 Y108.391 E.01315
G1 X158.024 Y108.191 E.01316
G1 X158.397 Y108.127 E.01187
G1 X171.416 Y108.127 E.4082
G1 X171.784 Y108.203 E.01178
;WIDTH:0.465078
G1 X171.965 Y108.271 E.00679
;WIDTH:0.510157
G1 X172.147 Y108.339 E.00755
G1 X172.385 Y108.568 E.01283
;WIDTH:0.493394
G1 X172.472 Y108.777 E.00848
;WIDTH:0.456697
G1 X172.559 Y108.987 E.00782
;WIDTH:0.419999
G1 X172.617 Y109.428 E.01395
G1 X172.617 Y122.347 E.40507
G1 X172.541 Y122.714 E.01175
;WIDTH:0.465076
G1 X172.479 Y122.88 E.00622
M204 S1000
;WIPE_START
G1 F8640
G1 X172.458 Y122.936 E-.01381
G1 X172.405 Y123.078 E-.035
G1 X172.176 Y123.316 E-.07626
G1 X171.967 Y123.402 E-.05218
G1 X171.757 Y123.489 E-.05249
G1 X171.316 Y123.547 E-.10271
G1 X169.291 Y123.547 E-.46755
;WIPE_END
G1 Z.6 F720
G1 X138.044 Y113.294 F10800
G1 Z.2 F720
G1 E.8 F2100
M204 S800
;TYPE:Perimeter
;WIDTH:0.419999
G1 F1200
G1 X138.067 Y113.239 E.00187
