; generated by PrusaSlicer 2.7.4+MacOS-arm64 on 2024-05-12 at 11:13:00 UTC


;
;
; 

; external perimeters extrusion width = 0.45mm
; perimeters extrusion width = 0.45mm
; infill extrusion width = 0.45mm
; solid infill extrusion width = 0.45mm
; top infill extrusion width = 0.40mm
; first layer extrusion width = 0.42mm

M73 P0 R116
M73 Q0 S118
M201 X1000 Y1000 Z200 E5000 ; sets maximum accelerations, mm/sec^2
M203 X200 Y200 Z12 E120 ; sets maximum feedrates, mm / sec
M204 S1250 T1250 ; sets acceleration (S) and retract acceleration (R), mm/sec^2
M205 X8.00 Y8.00 Z0.40 E4.50 ; sets the jerk limits, mm/sec
M205 S0 T0 ; sets the minimum extruding and travel feed rate, mm/sec

; printing object bottom.stl id:0 copy 0
; stop printing object bottom.stl id:0 copy 0

;TYPE:Custom
M862.3 P "MK3S" ; printer model check
M862.1 P0.4 ; nozzle diameter check
M115 U3.13.3 ; tell printer latest fw version
G90 ; use absolute coordinates
M83 ; extruder relative mode
M104 S215 ; set extruder temp
M140 S60 ; set bed temp
M190 S60 ; wait for bed temp
M109 S215 ; wait for extruder temp
G28 W ; home all without mesh bed level
G80 X53.3344 Y55.4176 W143.331 H99.1745 ; mesh bed levelling

G1 Z0.2 F720
G1 Y-3 F1000 ; go outside print area
G92 E0
G1 X60 E9 F1000 ; intro line
G1 X100 E12.5 F1000 ; intro line

G92 E0
M221 S95

; Don't change E values below. Excessive value can damage the printer.

M907 E538 ; set extruder motor current
G21 ; set units to millimeters
G90 ; use absolute coordinates
M83 ; use relative distances for extrusion

M900 K0.05 ; Filament gcode LA 1.5
M900 K30 ; Filament gcode LA 1.0




M107
;LAYER_CHANGE
;Z:0.2
;HEIGHT:0.2
G1 E-.8 F2100
G1 Z.6 F720
G1 X55.18 Y85.175 F10800
G1 Z.2 F720
G1 E.8 F2100
M204 S800
;TYPE:Skirt/Brim
;WIDTH:0.42
G1 F1200
G1 X56.08 Y84.656 E.03257
G1 X56.828 Y84.419 E.0246
G1 X175.496 Y55.69 E3.82824
G1 X176.591 Y55.607 E.03443
G1 X177.599 Y55.786 E.0321
G1 X178.631 Y56.267 E.0357
G1 X179.428 Y56.936 E.03263
G1 X179.874 Y57.51 E.02279
G1 X195.917 Y85.28 E1.00556
G1 X196.369 Y86.441 E.03906
G1 X196.477 Y87.369 E.02929
G1 X196.477 Y145.477 E1.82194
G1 X196.369 Y146.404 E.02926
G1 X196.013 Y147.381 E.0326
G1 X195.36 Y148.314 E.03571
G1 X194.82 Y148.803 E.02284
G1 X193.92 Y149.322 E.03257
G1 X192.82 Y149.617 E.03571
G1 X131.485 Y154.396 E1.92894
G1 X114.7 Y154.404 E.52628
G1 X57.093 Y147.233 E1.82017
G1 X56.08 Y146.947 E.033
G1 X55.437 Y146.608 E.02279
G1 X54.862 Y146.161 E.02284
G1 X54.374 Y145.622 E.0228
G1 X53.987 Y145.006 E.02281
G1 X53.712 Y144.332 E.02282
G1 X53.523 Y143.102 E.03902
G1 X53.523 Y88.502 E1.71194
G1 X53.631 Y87.574 E.02929
G1 X53.987 Y86.597 E.0326
G1 X54.64 Y85.664 E.03571
G1 X55.135 Y85.216 E.02093
M204 S1000
;WIPE_START
G1 F8640
G1 X55.18 Y85.175 E-.01406
G1 X56.08 Y84.656 E-.23989
G1 X56.828 Y84.419 E-.18118
G1 X58.364 Y84.047 E-.36487
;WIPE_END
G1 Z.6 F720
; printing object bottom.stl id:0 copy 0
G1 X193.313 Y136.459 F10800
M73 P0 R115
G1 Z.2 F720
G1 E.8 F2100
M204 S800
;TYPE:Perimeter
;WIDTH:0.419999
G1 F1200
G1 X193.313 Y139.843 E.1061
G1 X193.33 Y140.477 E.01989
;WIDTH:0.385276
G1 X193.349 Y141.105 E.01789
;WIDTH:0.35113
G1 X193.347 Y141.734 E.01612
;WIDTH:0.392416
G1 X193.327 Y142.367 E.0184
;WIDTH:0.419999
G1 X193.313 Y145.34 E.09322
G1 X193.243 Y145.82 E.01521
G1 X193.069 Y146.121 E.0109
G1 X192.802 Y146.345 E.01093
G1 X192.57 Y146.43 E.00775
G1 X192.266 Y146.489 E.00971
G1 X189.416 Y146.489 E.08936
G1 X189.101 Y146.504 E.00989
;WIDTH:0.390943
G1 X188.785 Y146.519 E.00915
;WIDTH:0.361887
G1 X188.157 Y146.527 E.01666
;WIDTH:0.367414
G1 X187.527 Y146.516 E.017
;WIDTH:0.393707
G1 X187.255 Y146.503 E.00794
;WIDTH:0.419999
G1 X186.984 Y146.489 E.00851
G1 X152.22 Y146.494 E1.09
G1 X151.829 Y146.624 E.01292
G1 X151.617 Y146.764 E.00797
G1 X151.379 Y147.118 E.01337
G1 X151.319 Y147.703 E.01844
G1 X151.243 Y148.195 E.01561
G1 X151.069 Y148.496 E.0109
G1 X150.802 Y148.72 E.01093
G1 X150.586 Y148.799 E.00721
G1 X150.266 Y148.864 E.01024
G1 X133.269 Y148.865 E.53293
G1 X132.829 Y148.999 E.01442
G1 X132.652 Y149.106 E.00648
G1 X132.379 Y149.493 E.01485
G1 X132.319 Y150.078 E.01844
G1 X132.243 Y150.57 E.01561
G1 X132.069 Y150.871 E.0109
G1 X131.802 Y151.095 E.01093
G1 X131.586 Y151.174 E.00721
G1 X131.266 Y151.239 E.01024
G1 X114.86 Y151.239 E.5144
G1 X114.356 Y151.169 E.01595
G1 X114.055 Y150.995 E.0109
G1 X113.831 Y150.728 E.01093
G1 X113.708 Y150.39 E.01128
G1 X113.687 Y149.82 E.01788
G1 X113.611 Y149.47 E.01123
G1 X113.348 Y149.105 E.01411
G1 X113.013 Y148.923 E.01195
G1 X112.775 Y148.87 E.00765
G1 X95.86 Y148.864 E.53036
G1 X95.356 Y148.794 E.01595
G1 X95.055 Y148.62 E.0109
G1 X94.831 Y148.353 E.01093
G1 X94.752 Y148.137 E.00721
G1 X94.687 Y147.817 E.01024
G1 X94.682 Y145.027 E.08748
G1 X94.573 Y144.64 E.01261
G1 X94.362 Y144.369 E.01077
G1 X94.013 Y144.173 E.01255
G1 X93.774 Y144.12 E.00768
G1 X63.016 Y144.115 E.96439
G1 X62.701 Y144.13 E.00989
;WIDTH:0.391117
G1 X62.385 Y144.144 E.00916
;WIDTH:0.362234
G1 X61.757 Y144.152 E.01668
;WIDTH:0.367668
G1 X61.127 Y144.141 E.01701
;WIDTH:0.393834
G1 X60.855 Y144.128 E.00795
;WIDTH:0.419999
G1 X57.931 Y144.114 E.09168
G1 X57.356 Y144.044 E.01816
G1 X57.055 Y143.87 E.0109
G1 X56.831 Y143.603 E.01093
G1 X56.745 Y143.368 E.00785
G1 X56.687 Y143.067 E.00961
G1 X56.674 Y139.974 E.09698
;WIDTH:0.393933
G1 X56.651 Y139.273 E.02047
;WIDTH:0.351128
G1 X56.653 Y138.644 E.01612
;WIDTH:0.393199
G1 X56.674 Y138.011 E.01845
;WIDTH:0.419999
G1 X56.687 Y137.468 E.01703
G1 X56.687 Y94.135 E1.35867
G1 X56.67 Y93.502 E.01985
;WIDTH:0.385276
G1 X56.651 Y92.873 E.01791
;WIDTH:0.351127
G1 X56.653 Y92.244 E.01612
;WIDTH:0.393199
G1 X56.674 Y91.611 E.01845
;WIDTH:0.419999
G1 X56.687 Y88.639 E.09319
G1 X56.757 Y88.158 E.01524
G1 X56.931 Y87.857 E.0109
G1 X57.198 Y87.633 E.01093
G1 X57.43 Y87.548 E.00775
G1 X57.734 Y87.489 E.00971
G1 X60.584 Y87.488 E.08936
G1 X60.899 Y87.474 E.00989
;WIDTH:0.391027
G1 X61.215 Y87.459 E.00916
;WIDTH:0.362054
G1 X61.77 Y87.452 E.01473
;WIDTH:0.367628
G1 X62.473 Y87.462 E.01898
;WIDTH:0.393814
G1 X62.744 Y87.475 E.00792
;WIDTH:0.419999
G1 X63.016 Y87.488 E.00854
G1 X114.169 Y87.479 E1.60386
G1 X114.554 Y87.334 E.0129
G1 X114.871 Y87.005 E.01432
G1 X122.729 Y73.395 E.49275
G1 X123.048 Y72.983 E.01634
G1 X123.349 Y72.809 E.0109
G1 X123.752 Y72.739 E.01282
G1 X132.502 Y72.739 E.27435
G1 X134.596 Y72.708 E.06566
G1 X136.698 Y72.617 E.06597
G1 X138.814 Y72.463 E.06652
G1 X140.907 Y72.249 E.06597
G1 X142.993 Y71.974 E.06597
G1 X144.368 Y71.752 E.04367
G1 X145.071 Y71.638 E.02233
G1 X147.138 Y71.243 E.06598
G1 X149.192 Y70.787 E.06597
G1 X151.233 Y70.272 E.066
G1 X152.011 Y70.051 E.02536
G1 X153.257 Y69.697 E.04061
G1 X155.264 Y69.064 E.06598
G1 X157.252 Y68.373 E.06599
G1 X158.553 Y67.878 E.04364
G1 X159.219 Y67.624 E.02235
G1 X161.163 Y66.819 E.06597
G1 X163.083 Y65.957 E.06599
G1 X164.107 Y65.461 E.03567
G1 X164.977 Y65.04 E.0303
G1 X166.843 Y64.068 E.06597
G1 X168.672 Y63.047 E.06568
G1 X171.346 Y61.496 E.09692
;WIDTH:0.406441
G1 X171.612 Y61.327 E.00953
;WIDTH:0.381372
G1 X171.878 Y61.159 E.00885
;WIDTH:0.356303
G1 X172.42 Y60.84 E.01639
;WIDTH:0.375095
G1 X172.974 Y60.537 E.01744
;WIDTH:0.419999
G1 X173.455 Y60.285 E.01703
G1 X175.743 Y58.965 E.08282
G1 X176.218 Y58.777 E.01602
G1 X176.711 Y58.831 E.01555
G1 X177.012 Y59.005 E.0109
G1 X177.274 Y59.318 E.0128
G1 X178.581 Y61.581 E.08194
G1 X178.916 Y62.118 E.01984
;WIDTH:0.376371
G1 X179.244 Y62.655 E.01745
;WIDTH:0.355438
G1 X179.554 Y63.202 E.01634
;WIDTH:0.401021
G1 X179.852 Y63.763 E.01891
;WIDTH:0.419999
G1 X193.069 Y86.675 E.82935
G1 X193.297 Y87.219 E.01849
G1 X193.313 Y87.449 E.00723
G1 X193.313 Y136.399 E1.53479
M204 S1000
;WIPE_START
G1 F8640
G1 X193.313 Y136.459 E-.01385
G1 X193.313 Y139.843 E-.78137
G1 X193.314 Y139.864 E-.00478
;WIPE_END
G1 Z.6 F720
G1 X113.097 Y149.387 F10800
G1 Z.2 F720
G1 E.8 F2100
M204 S800
;TYPE:External perimeter
G1 F1200
G1 X112.774 Y149.247 E.01104
G1 X95.726 Y149.242 E.53453
G1 X95.226 Y149.154 E.01592
G1 X94.809 Y148.913 E.0151
G1 X94.499 Y148.545 E.01509
G1 X94.332 Y148.084 E.01537
G1 X94.31 Y147.833 E.0079
G1 X94.305 Y145.028 E.08795
G1 X94.243 Y144.826 E.00663
G1 X94.101 Y144.641 E.00731
G1 X93.774 Y144.497 E.0112
G1 X57.726 Y144.492 E1.13026
G1 X57.226 Y144.404 E.01592
M73 Q0 S117
G1 X56.809 Y144.163 E.0151
G1 X56.499 Y143.795 E.01509
G1 X56.332 Y143.334 E.01537
G1 X56.31 Y143.084 E.00787
G1 X56.31 Y88.528 E1.71056
G1 X56.397 Y88.027 E.01594
G1 X56.638 Y87.61 E.0151
G1 X57.007 Y87.301 E.01509
G1 X57.467 Y87.133 E.01535
G1 X57.718 Y87.112 E.0079
G1 X114.096 Y87.106 E1.76769
G1 X114.299 Y87.044 E.00666
G1 X114.545 Y86.817 E.0105
G1 X122.476 Y73.079 E.49737
G1 X122.802 Y72.69 E.01591
G1 X123.219 Y72.449 E.0151
G1 X123.719 Y72.362 E.01591
G1 X132.502 Y72.362 E.27538
G1 X134.59 Y72.331 E.06547
G1 X136.682 Y72.24 E.06566
G1 X138.775 Y72.088 E.0658
G1 X140.855 Y71.875 E.06556
G1 X142.238 Y71.693 E.04374
G1 X142.933 Y71.602 E.02198
G1 X144.997 Y71.268 E.06556
G1 X147.056 Y70.874 E.06573
G1 X149.097 Y70.422 E.06554
G1 X151.13 Y69.909 E.06574
G1 X153.144 Y69.338 E.06564
G1 X155.066 Y68.732 E.06319
G1 X157.118 Y68.021 E.06809
G1 X159.074 Y67.276 E.06563
G1 X160.36 Y66.743 E.04365
G1 X161.008 Y66.475 E.02199
G1 X162.918 Y65.618 E.06564
G1 X164.802 Y64.705 E.06564
G1 X166.659 Y63.739 E.06563
G1 X168.481 Y62.722 E.06542
G1 X175.105 Y58.897 E.23983
G1 X175.754 Y58.545 E.02315
G1 X176.248 Y58.396 E.01618
G1 X176.842 Y58.471 E.01877
G1 X177.259 Y58.711 E.01509
G1 X177.585 Y59.101 E.01594
G1 X193.491 Y86.651 E.99744
G1 X193.668 Y87.136 E.01619
G1 X193.69 Y87.449 E.00984
G1 X193.69 Y145.451 E1.81861
G1 X193.603 Y145.951 E.01591
G1 X193.362 Y146.368 E.0151
G1 X192.993 Y146.677 E.01509
G1 X192.533 Y146.845 E.01535
G1 X192.282 Y146.867 E.0079
G1 X152.289 Y146.867 E1.25395
G1 X151.945 Y146.984 E.01139
M73 P1 R115
M73 Q1 S117
G1 X151.728 Y147.26 E.01101
G1 X151.691 Y147.821 E.01763
G1 X151.603 Y148.326 E.01607
G1 X151.362 Y148.743 E.0151
G1 X150.993 Y149.052 E.01509
G1 X150.533 Y149.22 E.01535
G1 X150.282 Y149.242 E.0079
G1 X133.289 Y149.242 E.5328
G1 X132.948 Y149.357 E.01128
G1 X132.728 Y149.635 E.01112
G1 X132.691 Y150.196 E.01763
G1 X132.603 Y150.701 E.01607
G1 X132.362 Y151.118 E.0151
G1 X131.993 Y151.427 E.01509
G1 X131.533 Y151.595 E.01535
G1 X131.282 Y151.617 E.0079
G1 X114.726 Y151.617 E.5191
G1 X114.226 Y151.529 E.01592
G1 X113.809 Y151.288 E.0151
G1 X113.499 Y150.92 E.01509
G1 X113.334 Y150.464 E.0152
G1 X113.282 Y149.672 E.02489
G1 X113.13 Y149.437 E.00878
M204 S1000
;WIPE_START
G1 F8640
G1 X113.097 Y149.387 E-.01383
G1 X112.774 Y149.247 E-.08129
G1 X109.721 Y149.246 E-.70488
;WIPE_END
G1 Z.6 F720
G1 X166.393 Y82.375 F10800
G1 Z.2 F720
G1 E.8 F2100
M204 S800
;TYPE:Perimeter
G1 F1200
G1 X166.5 Y82.343 E.0035
G1 X169.326 Y82.342 E.08861
G1 X169.576 Y82.4 E.00805
G1 X169.778 Y82.567 E.00822
G1 X171.215 Y85.047 E.08987
G1 X171.29 Y85.314 E.0087
G1 X171.215 Y85.612 E.00963
G1 X169.816 Y88.034 E.0877
G1 X169.622 Y88.233 E.00871
G1 X169.357 Y88.316 E.00871
G1 X166.529 Y88.316 E.08867
G1 X166.265 Y88.251 E.00852
G1 X166.053 Y88.055 E.00905
G1 X165.674 Y87.4 E.02373
G1 X164.641 Y85.612 E.06475
G1 X164.565 Y85.334 E.00904
G1 X164.622 Y85.083 E.00807
G1 X166.042 Y82.621 E.08911
G1 X166.246 Y82.419 E.009
G1 X166.336 Y82.392 E.00295
M204 S1000
G1 X166.336 Y82.392 F10800
G1 X166.499 Y82.722
M204 S800
;TYPE:External perimeter
G1 F1200
G1 X169.326 Y82.719 E.08864
G1 X169.469 Y82.784 E.00493
G1 X170.888 Y85.235 E.0888
G1 X170.902 Y85.393 E.00497
G1 X169.49 Y87.845 E.08872
G1 X169.357 Y87.937 E.00507
G1 X166.529 Y87.939 E.08867
G1 X166.384 Y87.871 E.00502
G1 X166 Y87.212 E.02391
G1 X164.968 Y85.424 E.06473
G1 X164.954 Y85.264 E.00504
G1 X166.367 Y82.812 E.08873
G1 X166.449 Y82.756 E.00311
M204 S1000
;WIPE_START
G1 F8640
G1 X166.499 Y82.722 E-.01396
G1 X169.326 Y82.719 E-.65276
G1 X169.469 Y82.784 E-.03627
G1 X169.68 Y83.148 E-.09701
;WIPE_END
G1 Z.6 F720
G1 X177.732 Y69.33 F10800
G1 Z.2 F720
G1 E.8 F2100
M204 S800
;TYPE:Perimeter
G1 F1200
G1 X177.252 Y69.639 E.0179
G1 X176.699 Y69.904 E.01923
G1 X176.117 Y70.098 E.01924
G1 X175.515 Y70.218 E.01925
G1 X174.903 Y70.261 E.01924
G1 X174.29 Y70.226 E.01925
G1 X173.686 Y70.116 E.01925
G1 X173.101 Y69.931 E.01924
G1 X172.544 Y69.673 E.01925
G1 X172.024 Y69.348 E.01923
G1 X171.548 Y68.961 E.01923
G1 X171.125 Y68.516 E.01925
G1 X170.76 Y68.022 E.01926
G1 X170.461 Y67.487 E.01922
G1 X170.231 Y66.918 E.01924
G1 X170.074 Y66.325 E.01923
G1 X169.995 Y65.735 E.01866
G1 X169.988 Y65.103 E.01982
G1 X170.061 Y64.493 E.01926
G1 X170.209 Y63.898 E.01922
G1 X170.431 Y63.326 E.01924
G1 X170.691 Y62.842 E.01723
G1 X171.075 Y62.293 E.02101
G1 X171.5 Y61.84 E.01948
;WIDTH:0.409784
G1 X171.985 Y61.465 E.0187
;WIDTH:0.360867
G1 X172.502 Y61.141 E.01613
;WIDTH:0.368578
G1 X173.046 Y60.867 E.01649
;WIDTH:0.394289
G1 X173.332 Y60.759 E.00893
;WIDTH:0.419999
G1 X173.618 Y60.65 E.0096
G1 X174.219 Y60.531 E.01921
G1 X174.768 Y60.492 E.01726
G1 X175.437 Y60.521 E.021
G1 X176.024 Y60.628 E.01871
G1 X176.633 Y60.818 E.02
G1 X177.19 Y61.075 E.01923
G1 X177.656 Y61.366 E.01723
G1 X178.18 Y61.783 E.021
G1 X178.596 Y62.244 E.01947
;WIDTH:0.383896
G1 X178.945 Y62.747 E.01736
;WIDTH:0.351813
G1 X179.243 Y63.278 E.01564
;WIDTH:0.395295
G1 X179.492 Y63.835 E.01788
;WIDTH:0.419999
G1 X179.66 Y64.424 E.0192
G1 X179.742 Y65.032 E.01924
G1 X179.746 Y65.646 E.01925
G1 X179.674 Y66.255 E.01923
G1 X179.525 Y66.85 E.01923
G1 X179.304 Y67.423 E.01926
G1 X179.012 Y67.962 E.01922
G1 X178.655 Y68.462 E.01926
G1 X178.238 Y68.912 E.01924
G1 X177.781 Y69.295 E.0187
M204 S1000
G1 X177.781 Y69.295 F10800
G1 X177.528 Y69.016
M204 S800
;TYPE:External perimeter
G1 F1200
G1 X177.05 Y69.321 E.01778
G1 X176.538 Y69.563 E.01776
G1 X176 Y69.74 E.01776
G1 X175.444 Y69.847 E.01775
G1 X174.879 Y69.884 E.01775
G1 X174.314 Y69.85 E.01775
G1 X173.757 Y69.745 E.01777
G1 X173.218 Y69.572 E.01775
G1 X172.705 Y69.332 E.01776
G1 X172.226 Y69.03 E.01775
G1 X171.788 Y68.67 E.01778
G1 X171.4 Y68.258 E.01774
G1 X171.066 Y67.801 E.01775
G1 X170.791 Y67.305 E.01778
G1 X170.581 Y66.779 E.01776
G1 X170.439 Y66.231 E.01775
G1 X170.369 Y65.687 E.0172
G1 X170.365 Y65.103 E.01831
G1 X170.435 Y64.541 E.01776
G1 X170.574 Y63.992 E.01776
G1 X170.781 Y63.465 E.01775
G1 X171.022 Y63.024 E.01576
G1 X171.383 Y62.511 E.01967
G1 X171.771 Y62.095 E.01784
G1 X172.207 Y61.732 E.01779
G1 X172.684 Y61.428 E.01774
G1 X173.196 Y61.185 E.01777
G1 X173.734 Y61.009 E.01775
G1 X174.29 Y60.901 E.01776
G1 X174.791 Y60.868 E.01574
G1 X175.418 Y60.898 E.01968
G1 X175.954 Y60.998 E.0171
G1 X176.516 Y61.176 E.01848
G1 X177.029 Y61.416 E.01776
G1 X177.454 Y61.684 E.01575
G1 X177.944 Y62.077 E.01969
G1 X178.335 Y62.49 E.01783
G1 X178.669 Y62.948 E.01777
G1 X178.943 Y63.443 E.01774
G1 X179.153 Y63.969 E.01776
G1 X179.295 Y64.517 E.01775
G1 X179.368 Y65.079 E.01777
G1 X179.369 Y65.646 E.01778
G1 X179.3 Y66.208 E.01775
G1 X179.16 Y66.757 E.01776
G1 X178.953 Y67.284 E.01775
G1 X178.681 Y67.781 E.01776
G1 X178.35 Y68.24 E.01774
G1 X177.963 Y68.654 E.01777
G1 X177.574 Y68.978 E.01587
M204 S1000
;WIPE_START
G1 F8640
G1 X177.528 Y69.016 E-.01378
G1 X177.05 Y69.321 E-.13093
G1 X176.538 Y69.563 E-.13076
G1 X176 Y69.74 E-.13078
G1 X175.444 Y69.847 E-.13074
G1 X174.879 Y69.884 E-.13074
G1 X174.314 Y69.85 E-.1307
G1 X174.307 Y69.849 E-.00157
;WIPE_END
G1 Z.6 F720
G1 X153.29 Y131.814 F10800
G1 Z.2 F720
G1 E.8 F2100
M204 S800
;TYPE:Perimeter
G1 F1200
G1 X153.198 Y131.848 E.00308
G1 X150.259 Y131.845 E.09215
G1 X149.994 Y131.732 E.00903
G1 X149.852 Y131.568 E.0068
G1 X148.453 Y129.147 E.08767
G1 X148.378 Y128.868 E.00906
G1 X148.447 Y128.593 E.00889
G1 X149.852 Y126.16 E.08809
G1 X150.043 Y125.962 E.00863
G1 X150.309 Y125.878 E.00875
G1 X153.139 Y125.877 E.08873
G1 X153.403 Y125.942 E.00852
G1 X153.628 Y126.16 E.00982
G1 X155.027 Y128.581 E.08767
G1 X155.102 Y128.842 E.00851
G1 X155.044 Y129.115 E.00875
G1 X153.628 Y131.568 E.08881
G1 X153.463 Y131.749 E.00768
G1 X153.346 Y131.793 E.00392
M204 S1000
G1 X153.346 Y131.793 F10800
G1 X153.171 Y131.471
M204 S800
;TYPE:External perimeter
G1 F1200
G1 X150.314 Y131.472 E.08958
