; generated by PrusaSlicer 2.7.4+MacOS-arm64 on 2024-05-12 at 12:01:12 UTC


;
;
; 

; external perimeters extrusion width = 0.45mm
; perimeters extrusion width = 0.45mm
; infill extrusion width = 0.45mm
; solid infill extrusion width = 0.45mm
; top infill extrusion width = 0.40mm
; first layer extrusion width = 0.42mm

M73 P0 R116
M73 Q0 S119
M201 X1000 Y1000 Z200 E5000 ; sets maximum accelerations, mm/sec^2
M203 X200 Y200 Z12 E120 ; sets maximum feedrates, mm / sec
M204 S1250 T1250 ; sets acceleration (S) and retract acceleration (R), mm/sec^2
M205 X8.00 Y8.00 Z0.40 E4.50 ; sets the jerk limits, mm/sec
M205 S0 T0 ; sets the minimum extruding and travel feed rate, mm/sec

; printing object bottom.stl id:0 copy 0
; stop printing object bottom.stl id:0 copy 0

;TYPE:Custom
M862.3 P "MK3S" ; printer model check
M862.1 P0.4 ; nozzle diameter check
M115 U3.13.3 ; tell printer latest fw version
G90 ; use absolute coordinates
M83 ; extruder relative mode
M104 S215 ; set extruder temp
M140 S60 ; set bed temp
M190 S60 ; wait for bed temp
M109 S215 ; wait for extruder temp
G28 W ; home all without mesh bed level
G80 X55.1422 Y47.7121 W143.331 H99.1745 ; mesh bed levelling

G1 Z0.2 F720
G1 Y-3 F1000 ; go outside print area
G92 E0
G1 X60 E9 F1000 ; intro line
G1 X100 E12.5 F1000 ; intro line
M73 Q0 S118

G92 E0
M221 S95

; Don't change E values below. Excessive value can damage the printer.

M907 E538 ; set extruder motor current
G21 ; set units to millimeters
G90 ; use absolute coordinates
M83 ; use relative distances for extrusion

M900 K0.05 ; Filament gcode LA 1.5
M900 K30 ; Filament gcode LA 1.0




M107
;LAYER_CHANGE
;Z:0.2
;HEIGHT:0.2
G1 E-.8 F2100
G1 Z.6 F720
G1 X71.934 Y49.805 F10800
G1 Z.2 F720
G1 E.8 F2100
M204 S800
;TYPE:Skirt/Brim
;WIDTH:0.42
G1 F1200
G1 X72.602 Y49.008 E.03261
G1 X73.535 Y48.355 E.03571
G1 X74.512 Y47.999 E.0326
G1 X75.647 Y47.9 E.03572
G1 X76.312 Y47.985 E.02102
G1 X194.98 Y76.713 E3.82823
G1 X195.728 Y76.95 E.0246
G1 X196.628 Y77.47 E.03259
G1 X197.168 Y77.958 E.02282
G1 X197.821 Y78.891 E.03571
G1 X198.177 Y79.868 E.0326
G1 X198.285 Y80.796 E.02929
G1 X198.285 Y135.396 E1.71194
G1 X198.095 Y136.627 E.03905
G1 X197.821 Y137.301 E.02281
G1 X197.434 Y137.916 E.02278
G1 X196.946 Y138.456 E.02282
G1 X196.371 Y138.902 E.02282
G1 X195.728 Y139.242 E.02281
G1 X194.715 Y139.527 E.033
G1 X137.108 Y146.698 E1.82017
G1 X120.323 Y146.691 E.52628
G1 X58.988 Y141.912 E1.92894
G1 X57.888 Y141.617 E.03571
G1 X56.987 Y141.097 E.03262
G1 X56.448 Y140.609 E.0228
G1 X55.795 Y139.676 E.03571
G1 X55.439 Y138.699 E.0326
G1 X55.331 Y137.771 E.02929
G1 X55.331 Y79.663 E1.82194
G1 X55.439 Y78.735 E.02929
G1 X55.89 Y77.575 E.03902
G1 X71.904 Y49.857 E1.0037
M204 S1000
;WIPE_START
G1 F8640
G1 X71.934 Y49.805 E-.01386
G1 X72.602 Y49.008 E-.24012
G1 X73.535 Y48.355 E-.26296
G1 X74.512 Y47.999 E-.2401
G1 X74.697 Y47.983 E-.04296
;WIPE_END
G1 Z.6 F720
; printing object bottom.stl id:0 copy 0
G1 X195.121 Y82.922 F10800
G1 Z.2 F720
G1 E.8 F2100
M204 S800
;TYPE:Perimeter
;WIDTH:0.419999
G1 F1200
G1 X195.121 Y83.427 E.01583
G1 X195.138 Y83.996 E.01785
;WIDTH:0.385276
G1 X195.157 Y84.625 E.01791
;WIDTH:0.351127
G1 X195.155 Y85.253 E.01609
;WIDTH:0.392416
G1 X195.135 Y85.887 E.01843
;WIDTH:0.419999
G1 X195.121 Y86.43 E.01703
G1 X195.121 Y129.827 E1.36068
G1 X195.138 Y130.396 E.01785
M73 P0 R115
;WIDTH:0.385276
G1 X195.157 Y131.034 E.01817
;WIDTH:0.355167
G1 X195.153 Y131.718 E.01776
;WIDTH:0.392416
G1 X195.135 Y132.287 E.01654
;WIDTH:0.419999
G1 X195.121 Y135.259 E.09319
G1 X195.05 Y135.74 E.01524
G1 X194.876 Y136.041 E.0109
G1 X194.609 Y136.265 E.01093
G1 X194.378 Y136.349 E.00771
G1 X194.073 Y136.409 E.00975
G1 X191.224 Y136.409 E.08933
G1 X190.908 Y136.424 E.00992
;WIDTH:0.391073
G1 X190.593 Y136.438 E.00913
;WIDTH:0.362147
G1 X189.965 Y136.447 E.01667
;WIDTH:0.367769
G1 X189.335 Y136.436 E.01702
;WIDTH:0.393884
G1 X189.063 Y136.423 E.00795
;WIDTH:0.419999
G1 X188.792 Y136.41 E.00851
G1 X157.919 Y136.426 E.968
G1 X157.498 Y136.619 E.01452
G1 X157.234 Y136.935 E.01291
G1 X157.126 Y137.322 E.0126
G1 X157.121 Y139.986 E.08353
G1 X157.05 Y140.49 E.01596
G1 X156.876 Y140.791 E.0109
G1 X156.609 Y141.015 E.01093
G1 X156.393 Y141.094 E.00721
G1 X156.073 Y141.159 E.01024
G1 X139.033 Y141.164 E.53428
G1 X138.883 Y141.185 E.00475
G1 X138.46 Y141.399 E.01486
G1 X138.187 Y141.788 E.0149
G1 X138.127 Y142.373 E.01844
G1 X138.05 Y142.865 E.01561
G1 X137.876 Y143.166 E.0109
G1 X137.609 Y143.39 E.01093
G1 X137.393 Y143.469 E.00721
G1 X137.073 Y143.534 E.01024
G1 X120.667 Y143.534 E.5144
G1 X120.164 Y143.464 E.01592
G1 X119.863 Y143.29 E.0109
G1 X119.639 Y143.023 E.01093
G1 X119.516 Y142.685 E.01128
G1 X119.461 Y141.899 E.0247
G1 X119.368 Y141.676 E.00758
G1 X119.121 Y141.371 E.01231
G1 X118.717 Y141.195 E.01382
G1 X118.519 Y141.159 E.00631
G1 X101.667 Y141.159 E.52838
G1 X101.164 Y141.089 E.01592
G1 X100.863 Y140.915 E.0109
G1 X100.639 Y140.648 E.01093
G1 X100.516 Y140.31 E.01128
G1 X100.494 Y139.739 E.01792
G1 X100.419 Y139.389 E.01122
G1 X100.145 Y139.016 E.01451
G1 X99.717 Y138.82 E.01476
G1 X99.519 Y138.784 E.00631
G1 X64.824 Y138.784 E1.08784
G1 X64.508 Y138.798 E.00992
;WIDTH:0.390943
G1 X64.193 Y138.813 E.00913
;WIDTH:0.361887
G1 X63.565 Y138.822 E.01666
;WIDTH:0.367414
G1 X62.935 Y138.81 E.017
;WIDTH:0.393707
G1 X62.663 Y138.797 E.00794
;WIDTH:0.419999
G1 X59.739 Y138.784 E.09168
G1 X59.164 Y138.714 E.01816
G1 X58.863 Y138.54 E.0109
G1 X58.639 Y138.273 E.01093
G1 X58.553 Y138.037 E.00788
G1 X58.495 Y137.737 E.00958
G1 X58.495 Y135.205 E.07939
G1 X58.478 Y134.571 E.01989
;WIDTH:0.385275
G1 X58.459 Y133.942 E.01791
;WIDTH:0.35113
G1 X58.46 Y133.314 E.01609
;WIDTH:0.393201
G1 X58.481 Y132.68 E.01848
;WIDTH:0.419999
G1 X58.495 Y132.137 E.01703
G1 X58.495 Y79.88 E1.63848
G1 X58.546 Y79.432 E.01414
G1 X58.648 Y79.127 E.01008
G1 X71.999 Y55.977 E.83791
;WIDTH:0.395296
G1 X72.295 Y55.421 E.01846
;WIDTH:0.351813
G1 X72.608 Y54.876 E.01614
;WIDTH:0.385055
G1 X72.945 Y54.329 E.01828
;WIDTH:0.419999
G1 X73.263 Y53.812 E.01903
G1 X74.494 Y51.68 E.07719
G1 X74.795 Y51.299 E.01522
G1 X75.097 Y51.125 E.01093
G1 X75.44 Y51.065 E.01092
G1 X75.687 Y51.108 E.00786
G1 X75.976 Y51.208 E.00959
G1 X78.632 Y52.727 E.09593
;WIDTH:0.394289
G1 X78.912 Y52.873 E.00923
;WIDTH:0.368579
G1 X79.462 Y53.177 E.01702
;WIDTH:0.360866
G1 X80.004 Y53.499 E.01667
;WIDTH:0.409638
G1 X80.543 Y53.838 E.01942
;WIDTH:0.419999
G1 X83.143 Y55.346 E.09424
G1 X84.976 Y56.368 E.0658
G1 X86.846 Y57.342 E.06611
G1 X88.189 Y57.992 E.04678
G1 X88.74 Y58.258 E.01918
G1 X90.66 Y59.12 E.06599
G1 X92.605 Y59.925 E.066
G1 X93.906 Y60.42 E.04364
G1 X94.572 Y60.673 E.02234
G1 X96.559 Y61.364 E.06596
G1 X98.551 Y61.992 E.06549
G1 X99.796 Y62.345 E.04057
G1 X100.591 Y62.57 E.02591
G1 X102.632 Y63.085 E.066
G1 X104.686 Y63.54 E.06596
G1 X106.753 Y63.936 E.06599
G1 X108.127 Y64.157 E.04363
G1 X108.831 Y64.271 E.02236
G1 X110.81 Y64.531 E.06258
G1 X113.011 Y64.759 E.06938
G1 X115.109 Y64.911 E.06595
G1 X117.212 Y65.003 E.066
G1 X119.306 Y65.033 E.06566
G1 X127.943 Y65.033 E.27081
G1 X128.459 Y65.104 E.01633
G1 X128.76 Y65.277 E.01089
G1 X129.022 Y65.591 E.01282
G1 X137.008 Y79.397 E.50008
G1 X137.336 Y79.675 E.01348
G1 X137.712 Y79.778 E.01222
G1 X188.802 Y79.783 E1.60189
G1 X189.144 Y79.768 E.01073
;WIDTH:0.390045
G1 X189.487 Y79.753 E.00991
;WIDTH:0.36009
G1 X190.05 Y79.745 E.01485
;WIDTH:0.367579
G1 X190.681 Y79.757 E.01704
;WIDTH:0.393789
G1 X190.952 Y79.77 E.00792
;WIDTH:0.419999
G1 X193.877 Y79.783 E.09171
G1 X194.451 Y79.853 E.01813
G1 X194.753 Y80.027 E.01093
G1 X194.977 Y80.294 E.01093
G1 X195.062 Y80.53 E.00786
G1 X195.121 Y80.871 E.01085
G1 X195.121 Y82.862 E.06243
M204 S1000
;WIPE_START
G1 F8640
G1 X195.121 Y82.922 E-.01385
G1 X195.121 Y83.427 E-.11661
G1 X195.138 Y83.996 E-.13144
G1 X195.157 Y84.625 E-.1453
G1 X195.155 Y85.253 E-.14501
G1 X195.135 Y85.887 E-.14647
G1 X195.123 Y86.325 E-.10132
;WIPE_END
G1 Z.6 F720
G1 X138.756 Y141.651 F10800
G1 Z.2 F720
G1 E.8 F2100
M204 S800
;TYPE:External perimeter
G1 F1200
G1 X138.536 Y141.93 E.01114
G1 X138.499 Y142.491 E.01763
G1 X138.41 Y142.995 E.01605
G1 X138.17 Y143.412 E.01509
G1 X137.801 Y143.722 E.01511
G1 X137.341 Y143.889 E.01534
G1 X137.09 Y143.911 E.0079
G1 X120.534 Y143.911 E.5191
G1 X120.034 Y143.824 E.01591
G1 X119.617 Y143.583 E.0151
G1 X119.307 Y143.214 E.01511
G1 X119.141 Y142.758 E.01522
G1 X119.09 Y141.967 E.02485
G1 X118.906 Y141.682 E.01064
G1 X118.519 Y141.536 E.01297
G1 X101.534 Y141.536 E.53255
G1 X101.034 Y141.449 E.01591
G1 X100.617 Y141.208 E.0151
G1 X100.307 Y140.839 E.01511
G1 X100.141 Y140.383 E.01522
G1 X100.09 Y139.592 E.02485
G1 X99.902 Y139.304 E.01078
G1 X99.519 Y139.161 E.01282
G1 X59.534 Y139.161 E1.2537
G1 X59.034 Y139.074 E.01591
G1 X58.617 Y138.833 E.0151
G1 X58.307 Y138.464 E.01511
G1 X58.14 Y138.004 E.01534
G1 X58.118 Y137.753 E.0079
G1 X58.118 Y79.689 E1.82055
G1 X58.207 Y79.181 E.01617
G1 X58.313 Y78.953 E.00788
G1 X74.223 Y51.396 E.99769
G1 X74.549 Y51.006 E.01594
M73 Q0 S117
G1 X74.966 Y50.765 E.0151
G1 X75.44 Y50.682 E.01509
G1 X75.922 Y50.767 E.01535
G1 X76.15 Y50.873 E.00788
G1 X83.324 Y55.015 E.25973
G1 X85.152 Y56.035 E.06563
G1 X87.01 Y57.002 E.06567
G1 X88.354 Y57.653 E.04682
G1 X88.895 Y57.914 E.01883
G1 X90.805 Y58.771 E.06564
G1 X92.739 Y59.572 E.06563
G1 X94.695 Y60.317 E.06563
G1 X96.01 Y60.774 E.04365
G1 X96.673 Y61.004 E.022
G1 X98.664 Y61.632 E.06546
G1 X100.683 Y62.205 E.0658
G1 X102.711 Y62.716 E.06557
G1 X104.072 Y63.018 E.04371
G1 X104.757 Y63.17 E.022
G1 X106.81 Y63.563 E.06554
G1 X108.88 Y63.897 E.06574
G1 X110.846 Y64.156 E.06218
G1 X113.036 Y64.383 E.06903
G1 X115.126 Y64.535 E.0657
G1 X117.217 Y64.626 E.06562
G1 X119.303 Y64.656 E.06541
G1 X128.089 Y64.656 E.27548
G1 X128.589 Y64.744 E.01592
G1 X129.006 Y64.984 E.01509
G1 X129.332 Y65.374 E.01594
G1 X137.263 Y79.111 E.49734
G1 X137.441 Y79.296 E.00805
G1 X137.712 Y79.401 E.00911
G1 X194.082 Y79.406 E1.76744
G1 X194.582 Y79.493 E.01591
G1 X194.999 Y79.734 E.0151
G1 X195.308 Y80.103 E.01509
G1 X195.476 Y80.563 E.01535
G1 X195.498 Y80.871 E.00968
G1 X195.498 Y135.37 E1.70878
G1 X195.41 Y135.87 E.01592
G1 X195.17 Y136.287 E.01509
G1 X194.801 Y136.597 E.01511
G1 X194.341 Y136.764 E.01534
M73 P1 R115
G1 X194.09 Y136.786 E.0079
G1 X158.033 Y136.791 E1.13054
G1 X157.757 Y136.901 E.00932
M73 Q1 S117
G1 X157.597 Y137.064 E.00716
G1 X157.503 Y137.322 E.00861
G1 X157.498 Y140.12 E.08773
G1 X157.41 Y140.62 E.01592
G1 X157.17 Y141.037 E.01509
G1 X156.801 Y141.347 E.01511
G1 X156.341 Y141.514 E.01534
G1 X156.09 Y141.536 E.0079
G1 X139.033 Y141.541 E.53481
G1 X138.812 Y141.629 E.00746
M204 S1000
;WIPE_START
G1 F8640
G1 X138.756 Y141.651 E-.01389
G1 X138.536 Y141.93 E-.08204
G1 X138.499 Y142.491 E-.12982
G1 X138.41 Y142.995 E-.11818
G1 X138.17 Y143.412 E-.11109
G1 X137.801 Y143.722 E-.11128
G1 X137.341 Y143.889 E-.113
G1 X137.09 Y143.911 E-.05818
G1 X136.819 Y143.911 E-.06252
;WIPE_END
G1 Z.6 F720
G1 X194.431 Y82.827 F10800
G1 Z.2 F720
G1 E.8 F2100
M204 S800
;TYPE:Perimeter
G1 F1200
G1 X194.663 Y83.421 E.01999
G1 X194.788 Y83.949 E.01701
;WIDTH:0.393199
G1 X194.848 Y84.558 E.01782
;WIDTH:0.351127
G1 X194.851 Y85.167 E.01561
;WIDTH:0.385277
G1 X194.797 Y85.775 E.01738
;WIDTH:0.419999
G1 X194.666 Y86.372 E.01916
G1 X194.444 Y86.944 E.01924
G1 X194.153 Y87.484 E.01923
G1 X193.795 Y87.983 E.01926
G1 X193.379 Y88.434 E.01924
G1 X192.909 Y88.828 E.01923
G1 X192.393 Y89.161 E.01926
G1 X191.84 Y89.426 E.01923
G1 X191.257 Y89.62 E.01927
G1 X190.655 Y89.739 E.01924
G1 X190.043 Y89.782 E.01924
G1 X189.431 Y89.748 E.01922
G1 X188.827 Y89.638 E.01925
G1 X188.242 Y89.452 E.01925
G1 X187.74 Y89.221 E.01733
G1 X187.109 Y88.825 E.02336
G1 X186.719 Y88.507 E.01578
G1 X186.265 Y88.038 E.02047
G1 X185.901 Y87.544 E.01924
G1 X185.602 Y87.009 E.01922
G1 X185.353 Y86.371 E.02147
G1 X185.213 Y85.839 E.01725
G1 X185.133 Y85.238 E.01901
G1 X185.137 Y84.553 E.02148
G1 X185.201 Y84.015 E.01699
G1 X185.35 Y83.42 E.01923
G1 X185.605 Y82.784 E.02148
G1 X185.863 Y82.308 E.01698
G1 X186.22 Y81.809 E.01924
G1 X186.637 Y81.358 E.01926
G1 X187.107 Y80.964 E.01923
G1 X187.623 Y80.631 E.01926
G1 X188.176 Y80.366 E.01923
G1 X188.758 Y80.172 E.01924
G1 X189.097 Y80.123 E.01074
;WIDTH:0.392407
G1 X189.436 Y80.074 E.00995
;WIDTH:0.364815
G1 X189.975 Y80.047 E.01444
;WIDTH:0.362054
G1 X190.583 Y80.073 E.01615
;WIDTH:0.391027
G1 X190.886 Y80.113 E.00885
;WIDTH:0.419999
G1 X191.189 Y80.154 E.00959
G1 X191.774 Y80.34 E.01925
G1 X192.331 Y80.597 E.01923
G1 X192.851 Y80.922 E.01923
G1 X193.327 Y81.31 E.01925
G1 X193.75 Y81.754 E.01923
G1 X194.115 Y82.248 E.01926
G1 X194.408 Y82.772 E.01882
M204 S1000
G1 X194.408 Y82.772 F10800
G1 X194.084 Y82.965
M204 S800
;TYPE:External perimeter
G1 F1200
G1 X194.31 Y83.556 E.01984
G1 X194.44 Y84.063 E.01641
G1 X194.508 Y84.601 E.017
G1 X194.51 Y85.167 E.01775
G1 X194.44 Y85.73 E.01779
G1 X194.301 Y86.278 E.01773
G1 X194.094 Y86.806 E.01778
G1 X193.822 Y87.303 E.01776
G1 X193.49 Y87.762 E.01776
G1 X193.104 Y88.176 E.01775
G1 X192.668 Y88.538 E.01777
G1 X192.191 Y88.843 E.01775
G1 X191.679 Y89.085 E.01776
G1 X191.141 Y89.261 E.01775
G1 X190.585 Y89.369 E.01776
G1 X190.02 Y89.406 E.01775
G1 X189.454 Y89.372 E.01778
G1 X188.898 Y89.267 E.01774
G1 X188.359 Y89.094 E.01775
G1 X187.9 Y88.88 E.01588
G1 X187.315 Y88.509 E.02172
G1 X186.92 Y88.184 E.01604
G1 X186.54 Y87.78 E.01739
G1 X186.206 Y87.323 E.01775
G1 X185.932 Y86.827 E.01777
G1 X185.705 Y86.236 E.01985
G1 X185.579 Y85.75 E.01574
G1 X185.507 Y85.191 E.01767
G1 X185.514 Y84.558 E.01985
G1 X185.58 Y84.039 E.0164
G1 X185.715 Y83.513 E.01703
G1 X185.954 Y82.928 E.01981
G1 X186.206 Y82.469 E.01642
G1 X186.525 Y82.03 E.01701
G1 X186.912 Y81.616 E.01777
G1 X187.347 Y81.254 E.01774
G1 X187.825 Y80.95 E.01776
G1 X188.337 Y80.707 E.01777
G1 X188.875 Y80.531 E.01775
G1 X189.497 Y80.419 E.01982
G1 X190.008 Y80.386 E.01606
G1 X190.561 Y80.42 E.01737
G1 X191.118 Y80.525 E.01777
G1 X191.657 Y80.698 E.01775
G1 X192.17 Y80.938 E.01776
G1 X192.649 Y81.24 E.01775
G1 X193.087 Y81.6 E.01778
G1 X193.475 Y82.012 E.01774
G1 X193.809 Y82.469 E.01775
G1 X194.055 Y82.913 E.01592
M204 S1000
;WIPE_START
G1 F8640
G1 X194.084 Y82.965 E-.01375
G1 X194.31 Y83.556 E-.1461
G1 X194.44 Y84.063 E-.12085
G1 X194.508 Y84.601 E-.12521
G1 X194.51 Y85.167 E-.13069
G1 X194.44 Y85.73 E-.131
G1 X194.301 Y86.278 E-.13054
G1 X194.298 Y86.285 E-.00186
;WIPE_END
G1 Z.6 F720
G1 X177.658 Y101.542 F10800
G1 Z.2 F720
G1 E.8 F2100
M204 S800
;TYPE:Perimeter
G1 F1200
G1 X177.554 Y101.58 E.00347
G1 X177.492 Y101.583 E.00195
G1 X174.695 Y101.583 E.0877
G1 X174.426 Y101.515 E.0087
G1 X174.214 Y101.314 E.00916
G1 X172.807 Y98.879 E.08818
G1 X172.731 Y98.615 E.00861
G1 X172.807 Y98.313 E.00976
G1 X174.206 Y95.892 E.08767
G1 X174.394 Y95.696 E.00852
G1 X174.641 Y95.612 E.00818
G1 X177.494 Y95.609 E.08945
G1 X177.759 Y95.676 E.00857
G1 X177.961 Y95.859 E.00855
G1 X179.38 Y98.313 E.08888
G1 X179.456 Y98.568 E.00834
G1 X179.38 Y98.879 E.01004
G1 X177.982 Y101.3 E.08766
G1 X177.802 Y101.491 E.00823
G1 X177.715 Y101.522 E.0029
M204 S1000
G1 X177.532 Y101.202 F10800
M204 S800
;TYPE:External perimeter
G1 F1200
G1 X177.492 Y101.206 E.00126
G1 X174.695 Y101.206 E.0877
G1 X174.535 Y101.116 E.00576
G1 X173.134 Y98.69 E.08784
G1 X173.119 Y98.532 E.00498
G1 X174.532 Y96.08 E.08873
G1 X174.663 Y95.989 E.005
G1 X174.695 Y95.986 E.00101
G1 X177.496 Y95.986 E.08782
G1 X177.642 Y96.06 E.00513
G1 X179.054 Y98.502 E.08845
G1 X179.069 Y98.658 E.00491
G1 X177.655 Y101.112 E.0888
G1 X177.581 Y101.166 E.00287
M204 S1000
;WIPE_START
G1 F8640
G1 X177.532 Y101.202 E-.01404
G1 X177.492 Y101.206 E-.00928
G1 X174.695 Y101.206 E-.64584
G1 X174.535 Y101.116 E-.04239
G1 X174.343 Y100.784 E-.08845
;WIPE_END
G1 Z.6 F720
G1 X177.864 Y114.776 F10800
G1 Z.2 F720
G1 E.8 F2100
M204 S800
;TYPE:Perimeter
G1 F1200
G1 X177.982 Y114.892 E.00519
G1 X179.38 Y117.313 E.08766
G1 X179.456 Y117.569 E.00837
G1 X179.399 Y117.845 E.00884
G1 X177.98 Y120.303 E.08899
G1 X177.79 Y120.499 E.00856
G1 X177.492 Y120.583 E.00971
G1 X174.695 Y120.583 E.0877
G1 X174.438 Y120.521 E.00829
