; generated by PrusaSlicer 2.7.4+MacOS-arm64 on 2024-05-12 at 11:26:37 UTC


;
;

;
;

;
;

;
;
; 

; external perimeters extrusion width = 0.45mm
; perimeters extrusion width = 0.45mm
; infill extrusion width = 0.45mm
; solid infill extrusion width = 0.45mm
; top infill extrusion width = 0.42mm
; first layer extrusion width = 0.50mm

M73 P0 R73
M73 Q0 S77
M201 X4000 Y4000 Z400 E5000 ; sets maximum accelerations, mm/sec^2
M203 X400 Y400 Z12 E80 ; sets maximum feedrates, mm / sec
M204 P4000 R1250 T4000 ; sets acceleration (P, T) and retract acceleration (R), mm/sec^2
M205 X8.00 Y8.00 Z2.00 E10.00 ; sets the jerk limits, mm/sec
M205 S0 T0 ; sets the minimum extruding and travel feed rate, mm/sec

M486 S0
M486 Abottom.stl
M486 S-1

;TYPE:Custom
M862.3 P "MINI" ; printer model check
M862.1 P0.4 ; nozzle diameter check
M862.5 P2 ; g-code level check
M862.6 P"Input shaper" ; FW feature check
M115 U6.0.0+14794
G90 ; use absolute coordinates
M83 ; extruder relative mode
M104 S170 ; set extruder temp for bed leveling
M140 S60 ; set bed temp
M109 R170 ; wait for bed leveling temp
M190 S60 ; wait for bed temp
M569 S1 X Y ; set stealthchop for X Y
M204 T1250 ; set travel acceleration
G28 ; home all without mesh bed level
G29 ; mesh bed leveling 
M104 S230 ; set extruder temp
G92 E0

G1 X0 Y-2 Z3 F2400

M109 S230 ; wait for extruder temp

; intro line
G1 X10 Z0.2 F1000
G1 X70 E8 F900
M73 Q0 S76
G1 X140 E10 F700
G92 E0

M569 S0 X Y ; set spreadcycle for X Y
M204 T4000 ; restore travel acceleration
M572 W0.06 ; set smooth time
M221 S95 ; set flow
G21 ; set units to millimeters
G90 ; use absolute coordinates
M83 ; use relative distances for extrusion
M572 S0.27
M107
;LAYER_CHANGE
;Z:0.2
;HEIGHT:0.2
G1 E-2.5 F4200
M73 P0 R72
G1 Z.4 F720
M486 S0
G1 X158.157 Y78.536 F24000
G1 Z.2 F720
G1 E2.5 F2400
M204 P500
;TYPE:Perimeter
;WIDTH:0.572818
G1 F1800
G1 X158.162 Y78.592 E.00248
;WIDTH:0.562511
G1 X158.177 Y78.864 E.01177
;WIDTH:0.531255
G1 X158.193 Y79.135 E.01102
;WIDTH:0.499999
G1 X158.193 Y122.532 E1.64936
;WIDTH:0.533816
G1 X158.176 Y122.817 E.01165
;WIDTH:0.567632
G1 X158.159 Y123.102 E.01246
G1 X158.135 Y123.015 E.00394
;WIDTH:0.552198
G1 X158.051 Y122.749 E.01181
;WIDTH:0.526099
G1 X157.967 Y122.484 E.01117
;WIDTH:0.499999
G1 X157.711 Y121.831 E.02666
G2 X156.108 Y119.926 I-4.673 J2.307 E.09555
G2 X155.003 Y119.331 I-3.741 J5.621 E.04777
G2 X152.603 Y119.035 I-1.813 J4.813 E.09277
G1 X151.913 Y119.163 E.02667
G2 X149.315 Y120.844 I1.359 J4.949 E.11947
G2 X148.686 Y121.844 I4.546 J3.555 E.04498
G1 X148.426 Y122.495 E.02664
G2 X148.209 Y123.657 I5.536 J1.633 E.04501
G1 X148.206 Y124.359 E.02668
G2 X148.433 Y125.519 I5.749 J-.52 E.045
G1 X148.689 Y126.172 E.02666
G2 X150.826 Y128.409 I4.607 J-2.262 E.11944
G2 X151.997 Y128.861 I2.761 J-5.409 E.04779
;WIDTH:0.532618
G1 X152.527 Y128.979 E.02211
G1 X151.984 Y128.995 E.02212
;WIDTH:0.499999
G1 X121.152 Y129.004 E1.17181
G1 X120.74 Y129.156 E.01669
G1 X120.503 Y129.337 E.01133
G1 X120.29 Y129.656 E.01458
G1 X120.198 Y130.027 E.01453
G1 X120.193 Y132.691 E.10125
G1 X120.128 Y133.153 E.01773
G1 X119.975 Y133.418 E.01163
G1 X119.741 Y133.615 E.01163
G3 X119.26 Y133.744 I-.953 J-2.579 E.01895
G1 X102.227 Y133.75 E.64736
G1 X102.153 Y133.754 E.00282
G1 X101.74 Y133.906 E.01673
G1 X101.523 Y134.065 E.01022
G1 X101.267 Y134.451 E.0176
G3 X101.128 Y135.528 I-14.774 J-1.359 E.04128
G1 X100.975 Y135.793 E.01163
G1 X100.741 Y135.99 E.01163
G3 X100.26 Y136.119 I-.953 J-2.579 E.01895
G1 X83.86 Y136.119 E.6233
G1 X83.398 Y136.055 E.01773
G1 X83.133 Y135.902 E.01163
G1 X82.937 Y135.667 E.01163
G3 X82.822 Y135.225 I1.966 J-.745 E.01739
G1 X82.782 Y134.657 E.02164
G1 X82.659 Y134.297 E.01446
G1 X82.394 Y133.988 E.01547
G1 X81.951 Y133.788 E.01847
G1 X81.711 Y133.744 E.00927
G1 X64.86 Y133.744 E.64044
G1 X64.398 Y133.68 E.01773
G1 X64.133 Y133.527 E.01163
G1 X63.937 Y133.292 E.01163
G3 X63.822 Y132.85 I1.966 J-.745 E.01739
G1 X63.782 Y132.282 E.02164
G1 X63.659 Y131.922 E.01446
G1 X63.373 Y131.597 E.01645
G1 X62.951 Y131.413 E.0175
G1 X62.711 Y131.369 E.00927
G1 X28.016 Y131.369 E1.31863
;WIDTH:0.529236
G1 X27.473 Y131.353 E.02197
G1 X28.087 Y131.215 E.02545
;WIDTH:0.499999
G2 X30.203 Y130.044 I-1.363 J-4.96 E.09278
G1 X30.685 Y129.535 E.02664
G2 X31.799 Y126.648 I-4.008 J-3.206 E.11947
G2 X31.567 Y124.859 I-5.27 J-.226 E.0689
G1 X31.311 Y124.206 E.02666
G2 X29.708 Y122.301 I-4.673 J2.307 E.09555
G2 X28.603 Y121.706 I-3.74 J5.621 E.04777
G2 X26.203 Y121.41 I-1.813 J4.813 E.09277
G1 X25.513 Y121.538 E.02667
G2 X22.915 Y123.219 I1.359 J4.95 E.11947
G2 X22.026 Y124.87 I4.235 J3.346 E.07163
;WIDTH:0.533814
G1 X21.933 Y125.173 E.01294
;WIDTH:0.567628
G1 X21.841 Y125.477 E.01386
G1 X21.833 Y125.386 E.00399
;WIDTH:0.552191
G1 X21.82 Y125.114 E.01153
;WIDTH:0.526095
G1 X21.807 Y124.843 E.0109
;WIDTH:0.499999
G1 X21.807 Y72.585 E1.98613
G3 X21.947 Y71.888 I2.128 J.063 E.02715
G1 X34.989 Y49.298 E.99138
;WIDTH:0.545419
G1 X35.162 Y49.043 E.01288
;WIDTH:0.590838
G1 X35.336 Y48.788 E.01406
G1 X35.322 Y48.859 E.0033
;WIDTH:0.574277
G1 X35.265 Y49.169 E.01393
;WIDTH:0.537138
G1 X35.207 Y49.478 E.01292
;WIDTH:0.499999
G2 X35.139 Y50.731 I6.678 J.991 E.04776
G2 X35.366 Y51.891 I5.749 J-.52 E.045
G1 X35.621 Y52.545 E.02668
G2 X37.759 Y54.782 I4.607 J-2.262 E.11946
G2 X40.803 Y55.335 I2.398 J-4.538 E.11944
G2 X42.016 Y55.013 I-1.239 J-7.098 E.04776
G2 X44.383 Y53.02 I-1.968 J-4.74 E.11946
G2 X45.126 Y50.017 I-4.378 J-2.678 E.11943
G2 X43.963 Y47.15 I-5.115 J.407 E.11945
;WIDTH:0.536654
G1 X43.83 Y46.984 E.00873
;WIDTH:0.573308
G1 X43.697 Y46.819 E.00935
;WIDTH:0.609962
G1 X43.563 Y46.653 E.01006
G1 X43.651 Y46.689 E.00448
;WIDTH:0.584031
G1 X43.897 Y46.806 E.01226
;WIDTH:0.542015
G1 X44.142 Y46.924 E.01129
;WIDTH:0.499999
G2 X48.112 Y49.18 I96.228 J-164.68 E.17355
G2 X73.99 Y57.356 I34.447 J-63.987 E1.03754
G2 X82.498 Y57.859 I8.636 J-73.876 E.3241
G1 X91.135 Y57.859 E.32826
G1 X91.609 Y57.924 E.01818
G1 X91.873 Y58.076 E.01158
G1 X92.115 Y58.365 E.01433
G1 X100.024 Y72.064 E.60119
G1 X100.287 Y72.357 E.01496
G1 X100.533 Y72.512 E.01105
G1 X100.904 Y72.603 E.01452
G1 X151.994 Y72.608 E1.94174
;WIDTH:0.526394
G1 X152.602 Y72.621 E.02445
;WIDTH:0.526318
G1 X151.913 Y72.763 E.02828
;WIDTH:0.499999
G2 X149.315 Y74.444 I1.359 J4.95 E.11947
G2 X148.686 Y75.444 I4.546 J3.555 E.04498
G1 X148.426 Y76.095 E.02664
G2 X148.209 Y77.257 I5.536 J1.633 E.04501
G1 X148.206 Y77.959 E.02668
G2 X148.433 Y79.119 I5.749 J-.52 E.045
G1 X148.689 Y79.772 E.02666
G2 X150.235 Y81.631 I4.64 J-2.287 E.09275
G2 X151.397 Y82.272 I3.636 J-5.218 E.05053
G2 X154.487 Y82.44 I1.81 J-4.802 E.11947
G2 X157.085 Y80.759 I-1.359 J-4.949 E.11947
G2 X157.974 Y79.108 I-4.235 J-3.346 E.07163
;WIDTH:0.536409
G1 X158.065 Y78.822 E.01232
;WIDTH:0.572818
G1 X158.138 Y78.593 E.01059
M204 P2000
G1 E-2.5 F4200
M204 T4000
G1 X158.138 Y78.593 Z.4 F24000
G1 X157.732 Y75.484
G1 Z.2 F720
G1 E2.5 F2400
M204 P500
;WIDTH:0.499999
G1 F1800
G1 X157.711 Y75.431 E.00217
G2 X155.574 Y73.194 I-4.607 J2.262 E.11944
G2 X154.403 Y72.742 I-2.761 J5.409 E.04779
;WIDTH:0.532238
G1 X153.873 Y72.624 E.02209
G1 X154.416 Y72.608 E.0221
;WIDTH:0.499999
G1 X157.069 Y72.609 E.10083
G1 X157.602 Y72.673 E.0204
G1 X157.867 Y72.826 E.01163
G1 X158.063 Y73.061 E.01163
G3 X158.193 Y73.576 I-1.679 J.696 E.02026
G1 X158.193 Y76.132 E.09714
;WIDTH:0.533816
G1 X158.176 Y76.417 E.01165
;WIDTH:0.567632
G1 X158.159 Y76.702 E.01246
G1 X158.135 Y76.615 E.00394
;WIDTH:0.552198
G1 X158.051 Y76.349 E.01181
;WIDTH:0.526099
G1 X157.967 Y76.084 E.01117
;WIDTH:0.499999
G1 X157.754 Y75.539 E.02224
M204 P2000
G1 X157.754 Y75.539 F24000
G1 X157.305 Y75.654
M204 P500
;TYPE:External perimeter
G1 F1800
G3 X157.54 Y76.247 I-4.327 J2.057 E.02426
G3 X156.715 Y80.491 I-4.369 J1.353 E.17115
G3 X151.538 Y81.837 I-3.522 J-2.918 E.21714
G3 X150.096 Y80.928 I2.038 J-4.832 E.06507
G3 X148.733 Y78.465 I3.231 J-3.397 E.10866
G3 X148.728 Y76.763 I4.999 J-.864 E.06499
G3 X149.109 Y75.618 I5.19 J1.092 E.04596
G3 X150.995 Y73.621 I4.15 J2.032 E.106
G3 X152.683 Y73.085 I2.271 J4.22 E.0677
G3 X156.697 Y74.69 I.51 J4.545 E.17113
G3 X157.279 Y75.6 I-3.719 J3.021 E.04114
M204 P2000
G1 X157.09 Y75.248 F24000
G1 E-2.5 F4200
G1 Z.4 F720
G1 X152.602 Y72.621 F24000
G1 Z.2 F720
G1 E2.5 F2400
M204 P500
;TYPE:Perimeter
;WIDTH:0.526394
G1 F1800
G1 X153.157 Y72.602 E.02232
;WIDTH:0.521188
G1 X153.785 Y72.619 E.02498
;WIDTH:0.532238
G1 X153.873 Y72.624 E.00359
M204 P2000
G1 E-2.5 F4200
G1 X153.873 Y72.624 Z.4 F24000
G1 X158.159 Y76.702
G1 Z.2 F720
G1 E2.5 F2400
M204 P500
;WIDTH:0.567632
G1 F1800
G1 X158.176 Y76.973 E.01185
;WIDTH:0.533483
G1 X158.193 Y77.244 E.01108
;WIDTH:0.499334
G1 X158.196 Y77.873 E.02387
;WIDTH:0.530781
G1 X158.178 Y78.187 E.01276
;WIDTH:0.567634
G1 X158.159 Y78.502 E.01377
;WIDTH:0.572818
G1 X158.157 Y78.536 E.0015
M204 P2000
G1 E-2.5 F4200
G1 X158.157 Y78.536 Z.4 F24000
G1 X140.916 Y94.348
G1 Z.2 F720
G1 E2.5 F2400
M204 P500
;WIDTH:0.499999
G1 F1800
G1 X140.759 Y94.405 E.00635
G1 X140.684 Y94.409 E.00285
G1 X137.887 Y94.409 E.1063
G1 X137.615 Y94.352 E.01056
G1 X137.363 Y94.164 E.01195
G1 X137.294 Y94.066 E.00456
G1 X135.895 Y91.644 E.1063
G1 X135.805 Y91.351 E.01165
G3 X135.858 Y91.032 I1.833 J.143 E.01231
G1 X137.294 Y88.537 E.10941
G1 X137.473 Y88.334 E.01029
G1 X137.769 Y88.205 E.01227
G1 X137.887 Y88.194 E.0045
G1 X140.687 Y88.194 E.10642
G1 X140.958 Y88.251 E.01053
G1 X141.19 Y88.417 E.01084
G3 X142.677 Y90.959 I-79.864 J48.421 E.11193
G1 X142.768 Y91.267 E.01221
G3 X142.677 Y91.644 I-.907 J-.019 E.01485
G1 X141.278 Y94.066 E.1063
G1 X141.06 Y94.297 E.01207
G1 X140.973 Y94.328 E.00351
M204 P2000
G1 X140.973 Y94.328 F24000
G1 X140.753 Y93.934
M204 P500
;TYPE:External perimeter
G1 F1800
G3 X140.684 Y93.952 I-.111 J-.285 E.00272
G1 X137.887 Y93.952 E.1063
G1 X137.728 Y93.887 E.00653
G1 X137.69 Y93.837 E.00239
G1 X136.291 Y91.416 E.10627
G1 X136.267 Y91.247 E.00649
G1 X136.279 Y91.212 E.00141
G1 X137.69 Y88.766 E.10732
G1 X137.823 Y88.661 E.00644
G1 X137.887 Y88.652 E.00246
G1 X140.685 Y88.652 E.10634
G1 X140.843 Y88.715 E.00646
G1 X142.281 Y91.187 E.10869
G1 X142.305 Y91.356 E.00649
G1 X142.281 Y91.416 E.00246
G1 X140.882 Y93.837 E.10627
G3 X140.806 Y93.906 I-.24 J-.188 E.00392
M204 P2000
G1 X140.408 Y93.946 F24000
G1 E-2.5 F4200
G1 Z.4 F720
G1 X137.657 Y107.254 F24000
G1 Z.2 F720
G1 E2.5 F2400
M204 P500
;TYPE:Perimeter
G1 F1800
G1 X137.814 Y107.198 E.00634
G1 X140.684 Y107.194 E.10908
G1 X140.959 Y107.252 E.01068
G1 X141.19 Y107.417 E.01079
G1 X141.278 Y107.537 E.00566
G1 X142.677 Y109.959 E.1063
G1 X142.768 Y110.269 E.01228
G1 X142.717 Y110.563 E.01134
G1 X141.276 Y113.07 E.1099
G1 X141.081 Y113.282 E.01095
G1 X140.787 Y113.401 E.01205
G1 X140.684 Y113.409 E.00393
G1 X137.887 Y113.409 E.1063
G1 X137.576 Y113.334 E.01216
G1 X137.352 Y113.151 E.01099
G1 X135.895 Y110.644 E.1102
G1 X135.805 Y110.345 E.01187
G1 X135.857 Y110.036 E.01191
G1 X135.895 Y109.959 E.00326
G1 X137.294 Y107.537 E.1063
G1 X137.514 Y107.305 E.01215
G1 X137.6 Y107.274 E.00347
M204 P2000
G1 X137.6 Y107.274 F24000
G1 X137.82 Y107.669
M204 P500
;TYPE:External perimeter
G1 F1800
G3 X137.887 Y107.652 I.111 J.286 E.00263
G1 X140.684 Y107.652 E.1063
G1 X140.844 Y107.717 E.00656
G1 X140.882 Y107.766 E.00236
G1 X142.281 Y110.187 E.10627
G1 X142.304 Y110.36 E.00663
G1 X140.882 Y112.839 E.10862
G3 X140.684 Y112.952 I-.242 J-.193 E.00887
G1 X137.887 Y112.952 E.1063
G1 X137.709 Y112.866 E.00751
G1 X136.291 Y110.416 E.10759
G1 X136.269 Y110.238 E.00682
G1 X137.69 Y107.766 E.10837
G3 X137.766 Y107.696 I.241 J.189 E.00395
M204 P2000
G1 X138.164 Y107.657 F24000
G1 E-2.5 F4200
G1 Z.4 F720
G1 X158.157 Y124.936 F24000
G1 Z.2 F720
G1 E2.5 F2400
M204 P500
;TYPE:Perimeter
;WIDTH:0.572818
G1 F1800
G1 X158.162 Y124.992 E.00248
;WIDTH:0.562511
G1 X158.177 Y125.264 E.01177
;WIDTH:0.531255
G1 X158.193 Y125.535 E.01102
;WIDTH:0.499999
G1 X158.193 Y127.965 E.09236
G1 X158.128 Y128.403 E.01683
G1 X157.975 Y128.668 E.01163
G1 X157.741 Y128.865 E.01163
G3 X157.26 Y128.994 I-.98 J-2.678 E.01895
G1 X154.416 Y128.995 E.10809
;WIDTH:0.530548
G1 X153.863 Y128.98 E.02243
G1 X153.873 Y128.979 E.00041
;WIDTH:0.529758
G1 X154.487 Y128.84 E.02548
;WIDTH:0.499999
G2 X156.177 Y128.026 I-1.459 J-5.197 E.07166
G2 X157.085 Y127.159 I-4.364 J-5.476 E.04778
G2 X157.974 Y125.508 I-4.235 J-3.346 E.07163
;WIDTH:0.536409
G1 X158.065 Y125.222 E.01232
;WIDTH:0.572818
G1 X158.138 Y124.993 E.01059
M204 P2000
G1 E-2.5 F4200
G1 X158.138 Y124.993 Z.4 F24000
G1 X154.859 Y119.772
G1 Z.2 F720
G1 E2.5 F2400
M204 P500
;TYPE:External perimeter
;WIDTH:0.499999
G1 F1800
G3 X155.436 Y120.043 I-1.746 J4.462 E.02425
G3 X156.304 Y120.675 I-2.622 J4.515 E.04088
G3 X157.667 Y123.135 I-3.229 J3.396 E.10856
G3 X157.734 Y124.34 I-5.228 J.895 E.04597
G3 X156.325 Y127.309 I-4.583 J-.356 E.12773
G3 X154.888 Y128.227 I-3.32 J-3.613 E.06514
G3 X149.703 Y126.913 I-1.681 J-4.254 E.21713
G3 X148.86 Y125.356 I3.72 J-3.022 E.06768
G3 X148.728 Y123.163 I4.521 J-1.373 E.08427
G3 X149.109 Y122.018 I5.19 J1.092 E.04596
G3 X150.995 Y120.021 I4.15 J2.032 E.106
G3 X152.683 Y119.485 I2.271 J4.22 E.0677
G3 X153.756 Y119.486 I.532 J5.192 E.04085
G3 X154.803 Y119.75 I-.643 J4.748 E.04113
M204 P2000
G1 X154.424 Y119.623 F24000
G1 E-2.5 F4200
G1 Z.4 F720
G1 X153.863 Y128.98 F24000
G1 Z.2 F720
G1 E2.5 F2400
M204 P500
;TYPE:Perimeter
;WIDTH:0.530548
G1 F1800
G1 X153.243 Y129.001 E.02515
;WIDTH:0.521548
G1 X152.615 Y128.984 E.025
;WIDTH:0.532618
G1 X152.527 Y128.979 E.00359
M204 P2000
G1 E-2.5 F4200
G1 X152.527 Y128.979 Z.4 F24000
G1 X158.159 Y123.102
G1 Z.2 F720
G1 E2.5 F2400
M204 P500
;WIDTH:0.567632
G1 F1800
G1 X158.176 Y123.373 E.01185
;WIDTH:0.533475
G1 X158.193 Y123.644 E.01108
;WIDTH:0.502038
G1 X158.192 Y124.346 E.0268
;WIDTH:0.534836
G1 X158.176 Y124.624 E.01139
;WIDTH:0.567634
G1 X158.159 Y124.902 E.01215
;WIDTH:0.572818
G1 X158.157 Y124.936 E.0015
M204 P2000
G1 E-2.5 F4200
G1 X158.157 Y124.936 Z.4 F24000
G1 X61.289 Y116.659
G1 Z.2 F720
G1 E2.5 F2400
M204 P500
;WIDTH:0.499999
G1 F1800
G1 X61.268 Y116.628 E.00142
G1 X59.869 Y114.207 E.10627
G1 X59.779 Y113.915 E.01161
G1 X59.823 Y113.617 E.01145
G1 X59.869 Y113.521 E.00405
G1 X61.268 Y111.1 E.10627
G1 X61.477 Y110.875 E.01167
G1 X61.764 Y110.764 E.0117
G1 X64.658 Y110.757 E.10999
G1 X64.957 Y110.825 E.01165
G1 X65.199 Y111.021 E.01184
G1 X66.651 Y113.521 E.10988
G1 X66.741 Y113.815 E.01169
G1 X66.697 Y114.109 E.0113
G1 X66.651 Y114.207 E.00411
G1 X65.252 Y116.628 E.10627
G1 X65.032 Y116.86 E.01215
G1 X64.735 Y116.967 E.012
G1 X61.861 Y116.971 E.10923
G1 X61.586 Y116.913 E.01068
G1 X61.332 Y116.721 E.0121
G1 X61.323 Y116.708 E.0006
M204 P2000
G1 X61.323 Y116.708 F24000
G1 X61.664 Y116.4
M204 P500
;TYPE:External perimeter
G1 F1800
G1 X60.265 Y113.978 E.1063
G1 X60.244 Y113.799 E.00685
G1 X60.265 Y113.75 E.00203
G1 X61.664 Y111.328 E.1063
G1 X61.806 Y111.221 E.00676
G1 X64.658 Y111.214 E.10839
G1 X64.821 Y111.282 E.00671
G1 X66.255 Y113.75 E.10848
G1 X66.277 Y113.925 E.0067
G1 X66.255 Y113.978 E.00218
G1 X64.856 Y116.4 E.1063
G1 X64.713 Y116.507 E.00679
G1 X61.861 Y116.514 E.10839
G1 X61.701 Y116.447 E.00659
M204 P2000
G1 X61.494 Y116.104 F24000
G1 E-2.5 F4200
G1 Z.4 F720
G1 X26.127 Y131.353 F24000
G1 Z.2 F720
G1 E2.5 F2400
M204 P500
;TYPE:Perimeter
;WIDTH:0.531908
G1 F1800
G1 X25.584 Y131.369 E.02209
;WIDTH:0.499999
G1 X22.931 Y131.369 E.10083
G1 X22.398 Y131.305 E.0204
G1 X22.133 Y131.152 E.01163
G1 X21.937 Y130.917 E.01163
G3 X21.807 Y130.437 I2.676 J-.979 E.01892
G1 X21.807 Y127.91 E.09604
;WIDTH:0.536409
G1 X21.825 Y127.611 E.01229
;WIDTH:0.572818
G1 X21.843 Y127.311 E.01324
G1 X21.86 Y127.365 E.00249
;WIDTH:0.562508
G1 X21.956 Y127.665 E.01361
;WIDTH:0.531254
G1 X22.052 Y127.964 E.01275
;WIDTH:0.499999
G2 X23.892 Y130.452 I4.854 J-1.666 E.11947
G2 X25.597 Y131.236 I3.074 J-4.437 E.07169
;WIDTH:0.531908
G1 X26.068 Y131.341 E.01962
M204 P2000
G1 E-2.5 F4200
G1 X26.068 Y131.341 Z.4 F24000
G1 X30.31 Y129.262
G1 Z.2 F720
G1 E2.5 F2400
M204 P500
;TYPE:External perimeter
;WIDTH:0.499999
G1 F1800
G3 X26.814 Y130.927 I-3.528 J-2.907 E.15197
G3 X22.468 Y127.769 I.003 J-4.574 E.21823
