; generated by PrusaSlicer 2.7.4+MacOS-arm64 on 2024-05-12 at 11:25:54 UTC


;
;

;
;

;
;

;
;
; 

; external perimeters extrusion width = 0.45mm
; perimeters extrusion width = 0.45mm
; infill extrusion width = 0.45mm
; solid infill extrusion width = 0.45mm
; top infill extrusion width = 0.42mm
; first layer extrusion width = 0.50mm

M73 P0 R56
M73 Q0 S60
M201 X4000 Y4000 Z400 E5000 ; sets maximum accelerations, mm/sec^2
M203 X400 Y400 Z12 E80 ; sets maximum feedrates, mm / sec
M204 P4000 R1250 T4000 ; sets acceleration (P, T) and retract acceleration (R), mm/sec^2
M205 X8.00 Y8.00 Z2.00 E10.00 ; sets the jerk limits, mm/sec
M205 S0 T0 ; sets the minimum extruding and travel feed rate, mm/sec

M486 S0
M486 Atop.stl
M486 S-1

;TYPE:Custom
M862.3 P "MINI" ; printer model check
M862.1 P0.4 ; nozzle diameter check
M862.5 P2 ; g-code level check
M862.6 P"Input shaper" ; FW feature check
M115 U6.0.0+14794
G90 ; use absolute coordinates
M83 ; extruder relative mode
M104 S170 ; set extruder temp for bed leveling
M140 S60 ; set bed temp
M109 R170 ; wait for bed leveling temp
M190 S60 ; wait for bed temp
M569 S1 X Y ; set stealthchop for X Y
M204 T1250 ; set travel acceleration
G28 ; home all without mesh bed level
G29 ; mesh bed leveling 
M104 S230 ; set extruder temp
G92 E0

G1 X0 Y-2 Z3 F2400

M109 S230 ; wait for extruder temp

; intro line
G1 X10 Z0.2 F1000
G1 X70 E8 F900
G1 X140 E10 F700
G92 E0

M569 S0 X Y ; set spreadcycle for X Y
M204 T4000 ; restore travel acceleration
M572 W0.06 ; set smooth time
M221 S95 ; set flow
G21 ; set units to millimeters
G90 ; use absolute coordinates
M83 ; use relative distances for extrusion
M572 S0.27
M107
;LAYER_CHANGE
;Z:0.2
;HEIGHT:0.2
G1 E-2.5 F4200
G1 Z.4 F720
M486 S0
G1 X79.295 Y72.088 F24000
G1 Z.2 F720
G1 E2.5 F2400
M204 P500
;TYPE:Perimeter
;WIDTH:0.499999
G1 F1800
G1 X79.481 Y72.007 E.00771
G1 X79.663 Y71.802 E.01042
G1 X87.377 Y58.442 E.58633
G1 X87.75 Y57.858 E.02634
G1 X88.06 Y57.577 E.0159
G3 X88.718 Y57.395 I.756 J1.446 E.02614
G1 X97.588 Y57.395 E.33712
G2 X133.568 Y47.758 I-.026 J-72.083 E1.43191
G1 X140.844 Y43.558 E.3193
G1 X141.263 Y43.383 E.01726
G1 X141.716 Y43.373 E.01722
G3 X142.325 Y43.669 I-.375 J1.545 E.02593
G1 X142.59 Y43.979 E.0155
G1 X158.54 Y71.605 E1.21239
G1 X158.739 Y72.042 E.01825
G1 X158.786 Y72.523 E.01837
G1 X158.786 Y130.552 E2.20547
G1 X158.76 Y130.93 E.0144
G1 X158.572 Y131.374 E.01833
G1 X158.254 Y131.692 E.01709
G1 X157.933 Y131.844 E.0135
G1 X157.535 Y131.905 E.0153
G1 X117.333 Y131.911 E1.52793
G1 X117.035 Y132.022 E.01209
G1 X116.826 Y132.244 E.01159
G1 X116.737 Y132.508 E.01059
G3 X116.747 Y133.365 I-6.026 J.497 E.0326
G1 X116.582 Y133.734 E.01536
G1 X116.322 Y134.019 E.01466
G1 X115.973 Y134.202 E.01498
G1 X115.548 Y134.28 E.01642
G1 X98.333 Y134.286 E.65428
G1 X98.035 Y134.397 E.01209
G1 X97.826 Y134.619 E.01159
G1 X97.737 Y134.883 E.01059
G3 X97.74 Y135.748 I-4.43 J.449 E.03293
G1 X97.575 Y136.112 E.01519
G1 X97.309 Y136.411 E.01521
G1 X97 Y136.568 E.01317
G1 X96.551 Y136.655 E.01738
G1 X79.993 Y136.655 E.62931
G1 X79.328 Y136.62 E.02531
G1 X78.999 Y136.481 E.01357
G1 X78.691 Y136.234 E.01501
G1 X78.496 Y135.884 E.01523
G1 X78.408 Y135.506 E.01475
G1 X78.453 Y134.953 E.02109
G1 X78.395 Y134.688 E.01031
G1 X78.245 Y134.473 E.00996
G1 X77.945 Y134.303 E.01311
G1 X77.768 Y134.28 E.00678
G1 X60.733 Y134.28 E.64744
G1 X60.217 Y134.211 E.01979
G1 X59.926 Y134.067 E.01234
G1 X59.667 Y133.825 E.01347
G1 X59.48 Y133.5 E.01425
G1 X59.399 Y133.065 E.01682
G1 X59.399 Y130.216 E.10828
G1 X59.319 Y129.894 E.01261
G1 X59.126 Y129.668 E.0113
G2 X58.714 Y129.53 I-.461 J.695 E.01671
G1 X22.993 Y129.53 E1.35762
G1 X22.339 Y129.495 E.02489
G1 X21.938 Y129.319 E.01664
G1 X21.61 Y129.002 E.01734
G1 X21.456 Y128.675 E.01374
G1 X21.398 Y128.284 E.01502
G1 X21.398 Y73.736 E2.07317
G1 X21.432 Y73.094 E.02443
G1 X21.605 Y72.691 E.01667
G1 X21.919 Y72.361 E.01731
G1 X22.244 Y72.205 E.0137
G1 X22.632 Y72.145 E.01492
G1 X78.196 Y72.144 E2.11178
G1 X79.189 Y72.134 E.03774
G1 X79.24 Y72.112 E.00211
M204 P2000
M204 T4000
G1 X79.24 Y72.112 F24000
G1 X79.135 Y71.678
M204 P500
;TYPE:External perimeter
G1 F1800
G1 X79.267 Y71.573 E.00641
G1 X87.169 Y57.887 E.60063
G1 X87.512 Y57.42 E.02202
G1 X87.831 Y57.177 E.01524
G1 X88.29 Y56.99 E.01884
G1 X88.689 Y56.938 E.01529
G1 X97.588 Y56.938 E.33822
G2 X133.342 Y47.36 I-.026 J-71.625 E1.42293
G1 X140.615 Y43.162 E.31916
G1 X141.157 Y42.933 E.02236
G1 X141.605 Y42.892 E.0171
G1 X141.981 Y42.953 E.01448
G1 X142.418 Y43.151 E.01823
G1 X142.75 Y43.428 E.01643
G1 X142.972 Y43.727 E.01415
G1 X158.939 Y71.382 E1.21367
G1 X159.184 Y71.923 E.02257
G1 X159.243 Y72.523 E.02291
G1 X159.243 Y130.552 E2.20547
G1 X159.209 Y131.032 E.01829
G1 X159.045 Y131.49 E.01849
G1 X158.856 Y131.77 E.01284
G1 X158.509 Y132.077 E.01761
G1 X158.069 Y132.286 E.01851
G1 X157.57 Y132.362 E.01918
G1 X117.418 Y132.362 E1.52603
G2 X117.203 Y132.513 I.028 J.27 E.01042
G1 X117.215 Y133.317 E.03056
G1 X117.057 Y133.846 E.02098
M73 Q0 S59
G1 X116.758 Y134.233 E.01859
G1 X116.427 Y134.49 E.01593
G1 X115.958 Y134.692 E.01941
G1 X115.575 Y134.737 E.01466
G1 X98.39 Y134.739 E.65314
G1 X98.238 Y134.825 E.00664
G1 X98.19 Y134.986 E.00639
G1 X98.237 Y135.52 E.02037
G1 X98.128 Y136.017 E.01934
G1 X97.957 Y136.361 E.0146
G1 X97.708 Y136.661 E.01482
G1 X97.303 Y136.948 E.01887
G3 X96.575 Y137.112 I-.818 J-1.933 E.02851
G1 X79.993 Y137.112 E.63022
G1 X79.393 Y137.088 E.02282
G1 X78.907 Y136.96 E.0191
M73 P1 R56
G1 X78.571 Y136.756 E.01494
G1 X78.247 Y136.391 E.01855
G1 X78.055 Y136.011 E.01618
G1 X77.948 Y135.52 E.0191
G1 X77.996 Y134.961 E.02132
G1 X77.927 Y134.801 E.00662
G1 X77.768 Y134.737 E.00651
G1 X60.607 Y134.737 E.65223
G1 X60.076 Y134.651 E.02044
G1 X59.663 Y134.447 E.01751
G1 X59.304 Y134.112 E.01866
G1 X59.051 Y133.669 E.01939
G1 X58.942 Y133.076 E.02292
G1 X58.942 Y130.216 E.1087
G1 X58.851 Y130.033 E.00777
G1 X58.714 Y129.987 E.00549
G1 X22.993 Y129.987 E1.35762
G1 X22.23 Y129.942 E.02905
M73 Q1 S59
G1 X21.822 Y129.79 E.01655
G1 X21.537 Y129.601 E.013
G1 X21.225 Y129.259 E.01759
G1 X21.013 Y128.809 E.01891
G1 X20.941 Y128.317 E.0189
G1 X20.941 Y73.736 E2.07442
G1 X20.984 Y72.988 E.02848
G1 X21.132 Y72.579 E.01653
G1 X21.319 Y72.292 E.01302
G1 X21.66 Y71.978 E.01762
G1 X22.107 Y71.764 E.01884
G1 X22.597 Y71.687 E.01885
G1 X78.196 Y71.687 E2.11311
G1 X79.075 Y71.679 E.03341
M204 P2000
G1 X79.359 Y71.397 F24000
G1 E-2.5 F4200
G1 Z.4 F720
G1 X133.996 Y67.629 F24000
G1 Z.2 F720
G1 E2.5 F2400
M204 P500
;TYPE:Perimeter
G1 F1800
G1 X134.33 Y67.792 E.01413
G1 X134.753 Y68.101 E.01991
G1 X135.116 Y68.479 E.01992
G1 X135.408 Y68.914 E.01991
G1 X135.62 Y69.393 E.01991
G1 X135.746 Y69.902 E.01993
G1 X135.781 Y70.425 E.01992
G3 X135.355 Y71.91 I-3.25 J-.128 E.05928
G1 X135.039 Y72.343 E.02037
G1 X134.662 Y72.706 E.01989
G3 X133.356 Y73.314 I-1.99 J-2.563 E.05521
G1 X132.835 Y73.371 E.01992
G1 X132.313 Y73.335 E.01989
G1 X131.804 Y73.21 E.01992
G1 X131.325 Y72.998 E.01991
G1 X130.89 Y72.706 E.01991
G1 X130.512 Y72.343 E.01992
G1 X130.203 Y71.92 E.01991
G1 X129.972 Y71.449 E.01994
G1 X129.826 Y70.946 E.01991
G1 X129.77 Y70.425 E.01992
G1 X129.814 Y69.874 E.02101
G1 X129.969 Y69.287 E.02307
G1 X130.203 Y68.811 E.02016
G1 X130.512 Y68.388 E.01991
G1 X130.89 Y68.025 E.01992
G1 X131.325 Y67.733 E.01991
G1 X131.814 Y67.518 E.0203
G1 X132.351 Y67.392 E.02096
G3 X133.356 Y67.416 I.418 J3.519 E.03834
G1 X133.86 Y67.562 E.01994
G1 X133.942 Y67.602 E.00347
M204 P2000
G1 X133.942 Y67.602 F24000
G1 X133.879 Y68.076
M204 P500
;TYPE:External perimeter
G1 F1800
G3 X134.742 Y68.741 I-1.132 J2.359 E.04171
G1 X135.069 Y69.268 E.02357
G1 X135.223 Y69.676 E.01657
G3 X135.326 Y70.385 I-2.57 J.735 E.02731
G1 X135.251 Y70.949 E.02162
G3 X133.238 Y72.873 I-2.487 J-.587 E.11192
G3 X131.885 Y72.755 I-.445 J-2.707 E.05216
G3 X130.261 Y70.788 I.927 J-2.42 E.10136
G1 X130.233 Y70.274 E.01956
G3 X130.835 Y68.711 I2.613 J.109 E.0648
G3 X132.795 Y67.815 I1.973 J1.725 E.08441
G1 X133.422 Y67.907 E.02409
G3 X133.824 Y68.05 I-.675 J2.528 E.01623
M204 P2000
G1 X133.45 Y67.91 F24000
G1 E-2.5 F4200
G1 Z.4 F720
G1 X114.056 Y73.959 F24000
G1 Z.2 F720
G1 E2.5 F2400
M204 P500
;TYPE:Perimeter
G1 F1800
G3 X113.805 Y73.936 I.076 J-2.205 E.00958
G1 X113.256 Y73.725 E.02235
G1 X112.81 Y73.337 E.02247
G3 X112.504 Y72.774 I1.828 J-1.359 E.02443
G1 X109.116 Y60.141 E.4971
G1 X109.066 Y59.738 E.01543
G1 X109.135 Y59.211 E.0202
G1 X109.309 Y58.833 E.01582
G1 X109.696 Y58.387 E.02244
G1 X109.89 Y58.251 E.009
G1 X110.316 Y58.063 E.0177
G1 X122.892 Y54.693 E.49483
G1 X123.375 Y54.641 E.01846
G1 X123.708 Y54.682 E.01275
G1 X124.201 Y54.886 E.02028
G1 X124.612 Y55.239 E.02059
G1 X124.783 Y55.467 E.01083
G1 X124.971 Y55.893 E.0177
G1 X128.342 Y68.475 E.49506
G1 X128.391 Y68.872 E.0152
G1 X128.321 Y69.401 E.02028
G1 X128.064 Y69.913 E.02177
G1 X127.711 Y70.268 E.01903
G3 X127.055 Y70.571 I-1.591 J-2.588 E.02753
G1 X114.56 Y73.919 E.49164
G3 X114.116 Y73.961 I-.428 J-2.165 E.01698
M204 P2000
G1 X114.116 Y73.961 F24000
G1 X114.025 Y73.493
M204 P500
;TYPE:External perimeter
G1 F1800
G3 X113.771 Y73.461 I.13 J-2.021 E.00974
G1 X113.384 Y73.265 E.01649
G1 X113.088 Y72.949 E.01646
G1 X112.933 Y72.618 E.01389
G1 X109.558 Y60.023 E.49558
G1 X109.522 Y59.778 E.00941
G1 X109.573 Y59.348 E.01646
G1 X109.769 Y58.961 E.01649
G1 X110.084 Y58.665 E.01643
G1 X110.435 Y58.504 E.01468
G1 X123.01 Y55.134 E.49479
G1 X123.453 Y55.101 E.01688
G1 X123.686 Y55.15 E.00905
G1 X124.073 Y55.345 E.01647
G1 X124.369 Y55.661 E.01646
G1 X124.53 Y56.011 E.01464
G1 X127.9 Y68.589 E.4949
G1 X127.935 Y68.832 E.00933
G1 X127.884 Y69.263 E.01649
G1 X127.688 Y69.649 E.01645
G1 X127.373 Y69.946 E.01645
G1 X126.937 Y70.129 E.01797
G1 X114.445 Y73.476 E.49152
G3 X114.084 Y73.496 I-.29 J-2.004 E.01376
M204 P2000
G1 X113.694 Y73.407 F24000
G1 E-2.5 F4200
G1 Z.4 F720
G1 X118.002 Y77.166 F24000
G1 Z.2 F720
G1 E2.5 F2400
M204 P500
;TYPE:Perimeter
G1 F1800
G1 X118.183 Y76.761 E.01686
G1 X118.593 Y76.335 E.02247
G1 X119.066 Y76.089 E.02026
G1 X119.584 Y76.005 E.01994
G1 X132.603 Y76.005 E.4948
G1 X133.005 Y76.061 E.01543
G1 X133.474 Y76.25 E.01922
G1 X133.891 Y76.602 E.02074
G1 X134.178 Y77.08 E.02119
G3 X134.3 Y77.703 I-4.306 J1.166 E.02415
G1 X134.3 Y90.722 E.4948
G1 X134.244 Y91.124 E.01543
G1 X134.057 Y91.591 E.01912
G1 X133.72 Y91.996 E.02002
G1 X133.286 Y92.267 E.01945
G1 X133.064 Y92.348 E.00898
G1 X132.603 Y92.419 E.01773
G1 X119.524 Y92.417 E.49708
G1 X119.181 Y92.363 E.0132
G1 X118.7 Y92.167 E.01974
G1 X118.323 Y91.852 E.01867
G1 X118.039 Y91.405 E.02013
G1 X117.897 Y90.843 E.02203
G1 X117.886 Y90.722 E.00462
G1 X117.886 Y77.703 E.4948
G1 X117.942 Y77.3 E.01546
G1 X117.978 Y77.221 E.0033
M204 P2000
G1 X117.978 Y77.221 F24000
G1 X118.446 Y77.265
M204 P500
;TYPE:External perimeter
G1 F1800
G3 X118.533 Y77.054 I1.961 J.689 E.00868
G1 X118.822 Y76.731 E.01647
G1 X119.204 Y76.527 E.01646
G1 X119.584 Y76.462 E.01465
G1 X132.603 Y76.462 E.4948
G1 X132.849 Y76.491 E.00941
G1 X133.251 Y76.652 E.01646
G1 X133.574 Y76.941 E.01647
G1 X133.779 Y77.322 E.01644
G1 X133.843 Y77.703 E.01468
G1 X133.843 Y90.722 E.4948
G1 X133.815 Y90.968 E.00941
G1 X133.654 Y91.37 E.01646
G1 X133.365 Y91.693 E.01647
G1 X132.983 Y91.898 E.01648
G1 X132.603 Y91.962 E.01465
G1 X119.564 Y91.962 E.49556
G1 X119.338 Y91.934 E.00866
G1 X118.935 Y91.773 E.01649
G1 X118.612 Y91.484 E.01647
G1 X118.408 Y91.102 E.01646
G1 X118.343 Y90.722 E.01465
G1 X118.343 Y77.703 E.4948
G3 X118.427 Y77.322 I2.064 J.251 E.01485
M204 P2000
G1 X118.622 Y76.973 F24000
G1 E-2.5 F4200
G1 Z.4 F720
G1 X134.203 Y96.171 F24000
G1 Z.2 F720
G1 E2.5 F2400
M204 P500
;TYPE:Perimeter
G1 F1800
G1 X134.229 Y96.242 E.00287
G1 X134.3 Y96.703 E.01773
G1 X134.3 Y109.722 E.4948
G1 X134.244 Y110.124 E.01543
G1 X134.057 Y110.591 E.01912
G1 X133.72 Y110.996 E.02002
G1 X133.286 Y111.267 E.01945
G1 X133.064 Y111.348 E.00898
G1 X132.603 Y111.419 E.01773
G1 X121.519 Y111.419 E.42126
G1 X119.584 Y111.419 E.07354
G1 X119.181 Y111.363 E.01546
G1 X118.69 Y111.157 E.02024
;WIDTH:0.511896
G1 X118.325 Y110.862 E.0183
G1 X118.05 Y110.423 E.0202
;WIDTH:0.499999
G1 X117.958 Y110.183 E.00977
G1 X117.886 Y109.597 E.02244
G1 X117.886 Y96.703 E.49005
G1 X117.942 Y96.3 E.01546
G1 X118.158 Y95.792 E.02098
G1 X118.532 Y95.375 E.02129
G1 X119.065 Y95.09 E.02297
G1 X119.584 Y95.005 E.01999
G1 X132.603 Y95.005 E.4948
G1 X133.005 Y95.061 E.01543
G1 X133.487 Y95.258 E.01979
G1 X133.877 Y95.586 E.01937
G1 X134.148 Y96.02 E.01945
G1 X134.183 Y96.115 E.00385
M204 P2000
G1 X134.183 Y96.115 F24000
G1 X133.792 Y96.397
M204 P500
;TYPE:External perimeter
G1 F1800
G1 X133.843 Y96.703 E.01179
G1 X133.843 Y109.722 E.4948
G1 X133.815 Y109.968 E.00941
G1 X133.654 Y110.37 E.01646
G1 X133.365 Y110.693 E.01647
G1 X132.983 Y110.898 E.01648
G1 X132.603 Y110.962 E.01465
G1 X121.519 Y110.962 E.42126
G1 X119.584 Y110.962 E.07354
G1 X119.338 Y110.934 E.00941
G1 X118.935 Y110.773 E.01649
G1 X118.612 Y110.484 E.01647
G1 X118.408 Y110.102 E.01646
G1 X118.343 Y109.597 E.01935
G1 X118.343 Y96.703 E.49005
G1 X118.372 Y96.457 E.00941
G1 X118.533 Y96.054 E.01649
G1 X118.822 Y95.731 E.01647
G1 X119.204 Y95.527 E.01646
G1 X119.584 Y95.462 E.01465
G1 X132.603 Y95.462 E.4948
G1 X132.849 Y95.491 E.00941
G1 X133.251 Y95.652 E.01646
G1 X133.574 Y95.941 E.01647
G1 X133.779 Y96.323 E.01648
G1 X133.782 Y96.337 E.00054
M204 P2000
G1 X133.835 Y96.734 F24000
G1 E-2.5 F4200
G1 Z.4 F720
G1 X98.993 Y131.599 F24000
G1 Z.2 F720
G1 E2.5 F2400
M204 P500
;TYPE:Perimeter
G1 F1800
G1 X98.897 Y131.218 E.01493
G1 X98.886 Y131.097 E.00462
G1 X98.886 Y118.078 E.4948
G1 X98.942 Y117.675 E.01546
G1 X99.158 Y117.167 E.02098
G1 X99.273 Y117.028 E.00686
G1 X99.532 Y116.75 E.01444
G1 X100.065 Y116.465 E.02297
G1 X100.584 Y116.38 E.01999
G1 X113.603 Y116.38 E.4948
G1 X114.005 Y116.436 E.01543
G1 X114.496 Y116.642 E.02024
;WIDTH:0.511103
G1 X114.862 Y116.938 E.01832
G1 X115.137 Y117.376 E.02013
;WIDTH:0.499999
G1 X115.229 Y117.617 E.0098
G1 X115.3 Y118.203 E.02243
G1 X115.3 Y131.097 E.49005
G1 X115.244 Y131.499 E.01543
G1 X115.07 Y131.945 E.0182
G1 X114.753 Y132.337 E.01916
G1 X114.286 Y132.642 E.0212
G1 X113.724 Y132.784 E.02203
G1 X113.603 Y132.794 E.00461
G1 X100.584 Y132.794 E.4948
G1 X100.181 Y132.738 E.01546
G1 X99.642 Y132.498 E.02242
G1 X99.257 Y132.149 E.01975
G1 X99.039 Y131.78 E.01629
G1 X99.008 Y131.658 E.00478
M204 P2000
G1 X99.008 Y131.658 F24000
G1 X99.497 Y131.644
M204 P500
;TYPE:External perimeter
G1 F1800
G1 X99.408 Y131.477 E.00719
G1 X99.343 Y131.097 E.01465
G1 X99.343 Y118.078 E.4948
G1 X99.372 Y117.832 E.00941
G1 X99.533 Y117.429 E.01649
G1 X99.623 Y117.321 E.00534
G1 X99.822 Y117.106 E.01113
G1 X100.204 Y116.902 E.01646
G1 X100.584 Y116.837 E.01465
G1 X113.603 Y116.837 E.4948
G1 X113.849 Y116.866 E.00941
M73 P1 R55
G1 X114.251 Y117.027 E.01646
G1 X114.574 Y117.316 E.01647
G1 X114.779 Y117.697 E.01644
G1 X114.843 Y118.203 E.01938
G1 X114.843 Y131.097 E.49005
G1 X114.815 Y131.343 E.00941
G1 X114.654 Y131.745 E.01646
G1 X114.365 Y132.068 E.01647
G1 X113.983 Y132.273 E.01648
G1 X113.603 Y132.337 E.01465
G1 X100.584 Y132.337 E.4948
G1 X100.338 Y132.309 E.00941
G1 X99.935 Y132.148 E.01649
G1 X99.612 Y131.859 E.01647
G1 X99.525 Y131.696 E.00702
M204 P2000
G1 X99.391 Y131.32 F24000
G1 E-2.5 F4200
G1 Z.4 F720
G1 X119.46 Y114.162 F24000
G1 Z.2 F720
G1 E2.5 F2400
M204 P500
;TYPE:Perimeter
G1 F1800
G1 X120.015 Y114.056 E.02147
G3 X121.519 Y114.005 I1.207 J13.508 E.05722
G1 X132.603 Y114.005 E.42126
G1 X133.005 Y114.061 E.01543
G1 X133.487 Y114.258 E.01979
G1 X133.877 Y114.586 E.01937
G1 X134.148 Y115.02 E.01945
G1 X134.229 Y115.242 E.00898
G1 X134.3 Y115.703 E.01773
G1 X134.3 Y128.722 E.4948
G1 X134.244 Y129.124 E.01543
G1 X134.004 Y129.664 E.02246
G1 X133.593 Y130.089 E.02247
G1 X133.064 Y130.348 E.02239
G1 X132.603 Y130.419 E.01773
G1 X119.584 Y130.419 E.4948
G1 X119.181 Y130.363 E.01546
G1 X118.642 Y130.123 E.02242
G1 X118.257 Y129.774 E.01975
G1 X118.039 Y129.405 E.01629
G1 X117.897 Y128.843 E.02203
G1 X117.886 Y128.722 E.00462
G1 X117.893 Y117.211 E.43749
G3 X117.96 Y116.474 I7.038 J.264 E.02814
